;FLAVOR:Marlin
;TIME:4004
;Filament used: 6.60542m
;Layer height: 0.4
;MINX:44.603
;MINY:39.307
;MINZ:0.15
;MAXX:90.305
;MAXY:107.292
;MAXZ:66.95
;Generated with Cura_SteamEngine 4.9.0
M140 S60
M105
M190 S60
M104 S200
M105
M109 S200
M82 ;absolute extrusion mode
G28 ; Auto home
G1 Z15 F300 ;Move up slightly
M107 ;Off fans
G90 ;Switch to absolute positioning
M82 ;Extruder absolute mode
G92 E0 ;Set position of extruder to 0
G0 X10 Y20 F1500 ;Move to X10 Y20 at 1500mms
G1 Z0.8 ;Move Z to 0.8
G1 F300 X180 E40 ;Extrude a line of filament
G1 F1200 Z2 ;Raise Z
G92 E0 ;Set extruder position to zero
G28 ;Auto home
G92 E0
G92 E0
G1 F2100 E-0.8
;LAYER_COUNT:168
;LAYER:0
M107
G0 F3600 X45.605 Y40.434 Z0.15
;TYPE:SKIRT
G1 F2100 E0
G1 F1800 X46.003 Y40.075 E0.01337
G1 X46.449 Y39.778 E0.02674
G1 X46.935 Y39.55 E0.04013
G1 X47.449 Y39.398 E0.0535
G1 X48.112 Y39.317 E0.07016
G1 X48.533 Y39.307 E0.08067
G1 X86.05 Y39.307 E1.01653
G1 X86.748 Y39.317 E1.03394
G1 X87.282 Y39.365 E1.04732
G1 X87.803 Y39.491 E1.06069
G1 X88.3 Y39.694 E1.07408
G1 X88.761 Y39.968 E1.08746
G1 X89.176 Y40.307 E1.10083
G1 X89.536 Y40.705 E1.11421
G1 X89.833 Y41.151 E1.12758
G1 X90.061 Y41.637 E1.14097
G1 X90.213 Y42.151 E1.15434
G1 X90.295 Y42.816 E1.17106
G1 X90.305 Y43.237 E1.18156
G1 X90.305 Y97.418 E2.53311
G1 X90.295 Y98.146 E2.55127
G1 X90.247 Y98.681 E2.56467
G1 X90.121 Y99.202 E2.57804
G1 X89.919 Y99.699 E2.59143
G1 X89.645 Y100.16 E2.6048
G1 X89.306 Y100.575 E2.61817
G1 X88.909 Y100.936 E2.63156
G1 X88.463 Y101.233 E2.64492
G1 X87.899 Y101.49 E2.66038
G1 X86.917 Y101.838 E2.68637
G1 X86.28 Y102.053 E2.70314
G1 X83.723 Y102.998 E2.77114
G1 X81.227 Y104.001 E2.83825
G1 X78.707 Y105.098 E2.90681
G1 X76.112 Y106.316 E2.97831
G1 X75.381 Y106.671 E2.99859
G1 X74.883 Y106.869 E3.01195
G1 X74.58 Y106.949 E3.01977
G1 X73.9 Y107.034 E3.03687
G1 X70.528 Y107.103 E3.121
G1 X67.735 Y107.241 E3.19075
G1 X67.233 Y107.267 E3.20329
G1 X65.953 Y107.292 E3.23523
G1 X65.568 Y107.292 E3.24483
G1 X64.851 Y107.281 E3.26272
G1 X64.447 Y107.252 E3.27283
G1 X63.883 Y107.179 E3.28701
G1 X62.268 Y106.948 E3.32771
G1 X61.347 Y106.844 E3.35083
G1 X60.35 Y106.716 E3.3759
G1 X59.988 Y106.65 E3.38508
G1 X59.258 Y106.4 E3.40433
G1 X58.313 Y105.957 E3.43036
G1 X55.837 Y104.837 E3.49815
G1 X53.281 Y103.766 E3.56728
G1 X50.761 Y102.797 E3.63463
G1 X48.158 Y101.878 E3.70349
G1 X47.057 Y101.505 E3.73249
G1 X46.563 Y101.295 E3.74588
G1 X46.106 Y101.015 E3.75925
G1 X45.696 Y100.67 E3.77262
G1 X45.341 Y100.267 E3.78601
G1 X45.05 Y99.817 E3.79938
G1 X44.83 Y99.328 E3.81276
G1 X44.684 Y98.812 E3.82614
G1 X44.613 Y98.194 E3.84165
G1 X44.603 Y97.769 E3.85226
G1 X44.603 Y43.527 E5.20533
G1 X44.613 Y42.862 E5.22192
G1 X44.661 Y42.328 E5.23529
G1 X44.788 Y41.807 E5.24867
G1 X44.991 Y41.31 E5.26206
G1 X45.265 Y40.849 E5.27544
G1 X45.605 Y40.434 E5.28882
G0 F3600 X45.997 Y40.608
G1 F1800 X46.388 Y40.287 E5.30144
G1 X46.825 Y40.033 E5.31405
G1 X47.296 Y39.85 E5.32666
G1 X47.791 Y39.744 E5.33928
G1 X48.443 Y39.708 E5.35557
G1 X86.044 Y39.707 E6.29353
G1 X86.742 Y39.717 E6.31095
G1 X87.245 Y39.764 E6.32355
G1 X87.735 Y39.89 E6.33617
G1 X88.199 Y40.092 E6.34879
G1 X88.625 Y40.364 E6.3614
G1 X89.003 Y40.699 E6.374
G1 X89.323 Y41.09 E6.38661
G1 X89.578 Y41.527 E6.39923
G1 X89.761 Y41.998 E6.41183
G1 X89.868 Y42.492 E6.42444
G1 X89.904 Y43.147 E6.4408
G1 X89.905 Y97.413 E7.79447
G1 X89.895 Y98.141 E7.81264
G1 X89.848 Y98.644 E7.82524
G1 X89.722 Y99.134 E7.83786
G1 X89.521 Y99.598 E7.85047
G1 X89.25 Y100.024 E7.86307
G1 X88.914 Y100.403 E7.8757
G1 X88.523 Y100.723 E7.88831
G1 X88.087 Y100.978 E7.90091
G1 X87.765 Y101.113 E7.90961
G1 X86.789 Y101.459 E7.93545
G1 X86.161 Y101.671 E7.95198
G1 X83.572 Y102.627 E8.02082
G1 X81.055 Y103.639 E8.0885
G1 X78.555 Y104.727 E8.15651
G1 X75.942 Y105.954 E8.22852
G1 X75.206 Y106.311 E8.24892
G1 X74.493 Y106.559 E8.26776
G1 X73.889 Y106.634 E8.28294
G1 X70.499 Y106.704 E8.36752
G1 X67.715 Y106.842 E8.43705
G1 X67.225 Y106.867 E8.44929
G1 X65.953 Y106.892 E8.48103
G1 X65.574 Y106.892 E8.49048
G1 X64.857 Y106.881 E8.50837
G1 X64.498 Y106.855 E8.51735
G1 X63.94 Y106.783 E8.53138
G1 X62.337 Y106.554 E8.57178
G1 X61.398 Y106.447 E8.59535
G1 X60.401 Y106.319 E8.62043
G1 X60.077 Y106.26 E8.62864
G1 X59.428 Y106.037 E8.64576
G1 X58.523 Y105.613 E8.67069
G1 X55.978 Y104.462 E8.74037
G1 X53.442 Y103.4 E8.80895
G1 X50.901 Y102.423 E8.87686
G1 X48.286 Y101.499 E8.94604
G1 X47.185 Y101.126 E8.97504
G1 X46.721 Y100.926 E8.98764
G1 X46.293 Y100.656 E9.00027
G1 X45.914 Y100.322 E9.01287
G1 X45.592 Y99.932 E9.02549
G1 X45.335 Y99.497 E9.03809
G1 X45.15 Y99.026 E9.05071
G1 X45.042 Y98.532 E9.06333
G1 X45.004 Y97.857 E9.08019
G1 X45.003 Y43.533 E10.43531
G1 X45.013 Y42.868 E10.4519
G1 X45.061 Y42.365 E10.4645
G1 X45.187 Y41.875 E10.47712
G1 X45.389 Y41.411 E10.48975
G1 X45.661 Y40.985 E10.50236
G1 X45.997 Y40.608 E10.51495
G1 F2100 E9.71495
G0 F3600 X47.55 Y98.758
G0 X60.986 Y101.352
;TYPE:SUPPORT
G1 F2100 E10.51495
G1 F1800 X62.586 Y101.352 E10.55486
G1 X62.586 Y101.493 E10.55838
G1 X62.985 Y101.892 E10.57246
G1 X67.535 Y101.892 E10.68596
G1 X67.871 Y101.674 E10.69595
G1 X71.432 Y101.674 E10.78478
G1 X71.813 Y101.644 E10.79431
G1 X73.611 Y101.644 E10.83916
G1 X73.611 Y103.244 E10.87908
G1 X70.292 Y103.244 E10.96187
G1 X69.911 Y103.274 E10.9714
G1 X67.192 Y103.274 E11.03923
G1 X66.856 Y103.492 E11.04922
G1 X65.116 Y103.492 E11.09262
G1 X65.116 Y103.351 E11.09614
G1 X64.717 Y102.952 E11.11022
G1 X60.986 Y102.952 E11.20329
G1 X60.986 Y101.352 E11.2432
G0 F3600 X61.341 Y101.512
G1 F1800 X61.341 Y102.792 E11.27513
G0 F3600 X64.008 Y102.792
G1 F1800 X64.008 Y102.052 E11.29359
G0 F3600 X66.675 Y102.052
G1 F1800 X66.675 Y103.332 E11.32552
G0 F3600 X69.342 Y103.114
G1 F1800 X69.342 Y101.834 E11.35745
G0 F3600 X72.009 Y101.804
G1 F1800 X72.009 Y103.084 E11.38938
G1 F2100 E10.58938
;MESH:leg3.stl
G0 F3600 X72.009 Y98.77
G0 X72.009 Y97.485
G0 X86.035 Y97.435
G0 X86.105 Y97.505
;TYPE:WALL-INNER
G1 F2100 E11.38938
G1 F1800 X48.803 Y97.505 E12.31988
G1 X48.803 Y43.507 E13.66686
G1 X86.105 Y43.507 E14.59737
G1 X86.105 Y97.505 E15.94435
G0 F3600 X86.035 Y97.435
G0 X67.14 Y76.06
G0 X67.14 Y75.96
G1 F1800 X68.133 Y75.862 E15.96924
G1 X69.09 Y75.572 E15.99419
G1 X69.97 Y75.101 E16.01909
G1 X70.741 Y74.468 E16.04397
G1 X71.375 Y73.696 E16.06889
G1 X71.846 Y72.816 E16.09379
G1 X72.135 Y71.86 E16.1187
G1 X72.233 Y70.867 E16.14359
G1 X72.135 Y69.874 E16.16848
G1 X71.846 Y68.918 E16.1934
G1 X71.375 Y68.036 E16.21834
G1 X70.731 Y67.256 E16.24357
G1 X69.97 Y66.633 E16.2681
G1 X69.09 Y66.162 E16.293
G1 X68.133 Y65.872 E16.31795
G1 X67.239 Y65.785 E16.34035
G1 X67.176 Y65.771 E16.34196
G1 X66.147 Y65.872 E16.36775
G1 X65.191 Y66.162 E16.39267
G1 X64.311 Y66.633 E16.41757
G1 X63.539 Y67.266 E16.44248
G1 X62.906 Y68.037 E16.46736
G1 X62.435 Y68.918 E16.49228
G1 X62.146 Y69.874 E16.51719
G1 X62.047 Y70.867 E16.54209
G1 X62.146 Y71.86 E16.56698
G1 X62.435 Y72.816 E16.59189
G1 X62.909 Y73.7 E16.61692
G1 X63.539 Y74.468 E16.64169
G1 X64.311 Y75.101 E16.6666
G1 X65.191 Y75.572 E16.6915
G1 X66.147 Y75.862 E16.71642
G1 X67.14 Y75.96 E16.74131
G0 F3600 X67.14 Y75.558
;TYPE:WALL-OUTER
G1 F1800 X68.055 Y75.468 E16.76424
G1 X68.936 Y75.201 E16.78721
G1 X69.747 Y74.767 E16.81015
G1 X70.457 Y74.184 E16.83307
G1 X71.041 Y73.473 E16.85602
G1 X71.475 Y72.662 E16.87897
G1 X71.741 Y71.782 E16.9019
G1 X71.831 Y70.867 E16.92483
G1 X71.741 Y69.952 E16.94777
G1 X71.475 Y69.072 E16.9707
G1 X71.041 Y68.26 E16.99367
G1 X70.447 Y67.541 E17.01693
G1 X69.747 Y66.967 E17.03951
G1 X68.936 Y66.533 E17.06246
G1 X68.055 Y66.266 E17.08542
G1 X67.179 Y66.181 E17.10738
G1 X67.152 Y66.175 E17.10807
G1 X66.225 Y66.266 E17.1313
G1 X65.345 Y66.533 E17.15424
G1 X64.534 Y66.967 E17.17719
G1 X63.823 Y67.55 E17.20012
G1 X63.24 Y68.26 E17.22304
G1 X62.806 Y69.072 E17.24601
G1 X62.54 Y69.952 E17.26894
G1 X62.449 Y70.867 E17.29188
G1 X62.54 Y71.782 E17.31481
G1 X62.806 Y72.662 E17.33775
G1 X63.243 Y73.477 E17.36082
G1 X63.823 Y74.184 E17.38363
G1 X64.534 Y74.767 E17.40656
G1 X65.345 Y75.201 E17.42951
G1 X66.225 Y75.468 E17.45245
G1 X67.14 Y75.558 E17.47538
G0 F3600 X67.339 Y75.539
G0 X67.387 Y76.036
G0 X86.035 Y97.435
G0 X86.505 Y97.905
G1 F1800 X48.403 Y97.905 E18.42584
G1 X48.403 Y43.107 E19.79278
G1 X86.505 Y43.107 E20.74324
G1 X86.505 Y97.905 E22.11018
G0 F3600 X86.305 Y97.905
G0 X85.715 Y97.115
;TYPE:SKIN
G1 F1800 X49.193 Y97.115 E23.02123
G1 X49.193 Y43.897 E24.34876
G1 X85.715 Y43.897 E25.2598
G1 X85.715 Y97.115 E26.58733
G0 F3600 X70.188 Y75.427
G1 F1800 X71.018 Y74.745 E26.61413
G1 X71.701 Y73.914 E26.64096
G1 X72.208 Y72.966 E26.66778
G1 X72.519 Y71.936 E26.69462
G1 X72.625 Y70.867 E26.72141
G1 X72.519 Y69.798 E26.74821
G1 X72.208 Y68.768 E26.77505
G1 X71.701 Y67.818 E26.80191
G1 X71.008 Y66.979 E26.82906
G1 X70.188 Y66.307 E26.8555
G1 X69.24 Y65.8 E26.88232
G1 X68.209 Y65.488 E26.90919
G1 X67.296 Y65.399 E26.93207
G1 X67.2 Y65.377 E26.93453
G1 X66.071 Y65.488 E26.96283
G1 X65.041 Y65.8 E26.98967
G1 X64.093 Y66.307 E27.01649
G1 X63.262 Y66.989 E27.04331
G1 X62.58 Y67.819 E27.07011
G1 X62.073 Y68.768 E27.09695
G1 X61.762 Y69.798 E27.12379
G1 X61.655 Y70.867 E27.15058
G1 X61.762 Y71.936 E27.17738
G1 X62.073 Y72.966 E27.20422
G1 X62.583 Y73.918 E27.23116
G1 X63.262 Y74.745 E27.25786
G1 X64.093 Y75.427 E27.28467
G1 X65.041 Y75.934 E27.31149
G1 X66.071 Y76.246 E27.33834
G1 X67.14 Y76.352 E27.36513
G1 X68.209 Y76.246 E27.39193
G1 X69.24 Y75.934 E27.4188
G1 X70.188 Y75.427 E27.44562
G0 F3600 X49.982 Y96.934
G1 F1800 X49.372 Y96.324 E27.46714
G0 F3600 X49.372 Y95.758
G1 F1800 X50.548 Y96.934 E27.50862
G0 F3600 X51.113 Y96.934
G1 F1800 X49.372 Y95.192 E27.57006
G0 F3600 X49.372 Y94.627
G1 F1800 X51.679 Y96.934 E27.65145
G0 F3600 X52.245 Y96.934
G1 F1800 X49.372 Y94.061 E27.7528
G0 F3600 X49.372 Y93.495
G1 F1800 X52.81 Y96.934 E27.8741
G0 F3600 X53.376 Y96.934
G1 F1800 X49.372 Y92.93 E28.01535
G0 F3600 X49.372 Y92.364
G1 F1800 X53.942 Y96.934 E28.17657
G0 F3600 X54.508 Y96.934
G1 F1800 X49.372 Y91.798 E28.35776
G0 F3600 X49.372 Y91.233
G1 F1800 X55.073 Y96.934 E28.55888
G0 F3600 X55.639 Y96.934
G1 F1800 X49.372 Y90.667 E28.77996
G0 F3600 X49.372 Y90.101
G1 F1800 X56.205 Y96.934 E29.02101
G0 F3600 X56.77 Y96.934
G1 F1800 X49.372 Y89.535 E29.28202
G0 F3600 X49.372 Y88.97
G1 F1800 X57.336 Y96.934 E29.56297
G0 F3600 X57.902 Y96.934
G1 F1800 X49.372 Y88.404 E29.86389
G0 F3600 X49.372 Y87.838
G1 F1800 X58.467 Y96.934 E30.18476
G0 F3600 X59.033 Y96.934
G1 F1800 X49.372 Y87.273 E30.52557
G0 F3600 X49.372 Y86.707
G1 F1800 X59.599 Y96.934 E30.88636
G0 F3600 X60.164 Y96.934
G1 F1800 X49.372 Y86.141 E31.26709
G0 F3600 X49.372 Y85.576
G1 F1800 X60.73 Y96.934 E31.66778
G0 F3600 X61.296 Y96.934
G1 F1800 X49.372 Y85.01 E32.08843
G0 F3600 X49.372 Y84.444
G1 F1800 X61.861 Y96.934 E32.52903
G0 F3600 X62.427 Y96.934
G1 F1800 X49.372 Y83.879 E32.98958
G0 F3600 X49.372 Y83.313
G1 F1800 X62.993 Y96.934 E33.4701
G0 F3600 X63.559 Y96.934
G1 F1800 X49.372 Y82.747 E33.97058
G0 F3600 X49.372 Y82.182
G1 F1800 X64.124 Y96.934 E34.491
G0 F3600 X64.69 Y96.934
G1 F1800 X49.372 Y81.616 E35.03138
G0 F3600 X49.372 Y81.05
G1 F1800 X65.256 Y96.934 E35.59173
G0 F3600 X65.821 Y96.934
G1 F1800 X49.372 Y80.485 E36.17202
G0 F3600 X49.372 Y79.919
G1 F1800 X66.387 Y96.934 E36.77227
G0 F3600 X66.953 Y96.934
G1 F1800 X49.372 Y79.353 E37.39248
G0 F3600 X49.372 Y78.787
G1 F1800 X67.518 Y96.934 E38.03265
G0 F3600 X68.084 Y96.934
G1 F1800 X49.372 Y78.222 E38.69277
G0 F3600 X49.372 Y77.656
G1 F1800 X68.65 Y96.934 E39.37285
G0 F3600 X69.215 Y96.934
G1 F1800 X49.372 Y77.09 E40.07288
G0 F3600 X49.372 Y76.525
G1 F1800 X69.781 Y96.934 E40.79287
G0 F3600 X70.347 Y96.934
G1 F1800 X49.372 Y75.959 E41.53282
G0 F3600 X49.372 Y75.393
G1 F1800 X70.912 Y96.934 E42.29272
G0 F3600 X71.478 Y96.934
G1 F1800 X49.372 Y74.828 E43.07256
G0 F3600 X49.372 Y74.262
G1 F1800 X72.044 Y96.934 E43.87238
G0 F3600 X72.609 Y96.934
G1 F1800 X49.372 Y73.696 E44.69215
G0 F3600 X49.372 Y73.131
G1 F1800 X73.175 Y96.934 E45.53186
G0 F3600 X73.741 Y96.934
G1 F1800 X49.372 Y72.565 E46.39154
G0 F3600 X49.372 Y71.999
G1 F1800 X74.307 Y96.934 E47.27119
G0 F3600 X74.872 Y96.934
G1 F1800 X49.372 Y71.434 E48.17077
G0 F3600 X49.372 Y70.868
G1 F1800 X75.438 Y96.934 E49.09032
G0 F3600 X76.004 Y96.934
G1 F1800 X49.372 Y70.302 E50.02984
G0 F3600 X49.372 Y69.736
G1 F1800 X76.569 Y96.934 E50.9893
G0 F3600 X77.135 Y96.934
G1 F1800 X49.372 Y69.171 E51.96872
G0 F3600 X49.372 Y68.605
G1 F1800 X77.701 Y96.934 E52.9681
G0 F3600 X78.266 Y96.934
G1 F1800 X49.372 Y68.039 E53.98743
G0 F3600 X49.372 Y67.474
G1 F1800 X78.832 Y96.934 E55.02671
G0 F3600 X79.398 Y96.934
G1 F1800 X49.372 Y66.908 E56.08596
G0 F3600 X49.372 Y66.342
G1 F1800 X79.963 Y96.934 E57.16516
G0 F3600 X80.529 Y96.934
G1 F1800 X49.372 Y65.777 E58.26431
G0 F3600 X49.372 Y65.211
G1 F1800 X81.095 Y96.934 E59.38342
G0 F3600 X81.66 Y96.934
G1 F1800 X49.372 Y64.645 E60.52248
G0 F3600 X49.372 Y64.08
G1 F1800 X82.226 Y96.934 E61.6815
G0 F3600 X82.792 Y96.934
G1 F1800 X49.372 Y63.514 E62.86048
G0 F3600 X49.372 Y62.948
G1 F1800 X83.357 Y96.934 E64.05941
G0 F3600 X83.923 Y96.934
G1 F1800 X49.372 Y62.383 E65.27829
G0 F3600 X49.372 Y61.817
G1 F1800 X84.489 Y96.934 E66.51714
G0 F3600 X85.055 Y96.934
G1 F1800 X49.372 Y61.251 E67.77595
G0 F3600 X49.372 Y60.686
G1 F1800 X62.118 Y73.432 E68.2256
G1 X62.188 Y73.502
G0 F3600 X61.741 Y72.489
G1 F1800 X49.372 Y60.12 E68.66195
G0 F3600 X49.372 Y59.554
G1 F1800 X61.562 Y71.745 E69.092
G0 F3600 X61.499 Y71.115
G1 F1800 X49.372 Y58.988 E69.51982
G0 F3600 X49.372 Y58.423
G1 F1800 X61.505 Y70.556 E69.94784
G0 F3600 X61.557 Y70.042
G1 F1800 X49.372 Y57.857 E70.3777
G0 F3600 X49.372 Y57.291
G1 F1800 X61.644 Y69.563 E70.81063
G0 F3600 X61.775 Y69.129
G1 F1800 X49.372 Y56.726 E71.24818
G0 F3600 X49.372 Y56.16
G1 F1800 X61.907 Y68.695 E71.69038
G0 F3600 X62.104 Y68.327
G1 F1800 X49.372 Y55.594 E72.13955
G0 F3600 X49.372 Y55.029
G1 F1800 X62.301 Y67.957 E72.59564
G0 F3600 X62.518 Y67.609
G1 F1800 X49.372 Y54.463 E73.0594
G0 F3600 X49.372 Y53.897
G1 F1800 X62.773 Y67.298 E73.53216
G0 F3600 X63.028 Y66.988
G1 F1800 X49.372 Y53.332 E74.01391
G0 F3600 X49.372 Y52.766
G1 F1800 X63.316 Y66.71 E74.50582
G0 F3600 X63.626 Y66.455
G1 F1800 X49.372 Y52.2 E75.00869
G0 F3600 X49.372 Y51.635
G1 F1800 X63.937 Y66.2 E75.52251
G0 F3600 X64.295 Y65.992
G1 F1800 X49.372 Y51.069 E76.04896
G0 F3600 X49.372 Y50.503
G1 F1800 X64.664 Y65.795 E76.58843
G0 F3600 X65.043 Y65.608
G1 F1800 X49.372 Y49.938 E77.14124
G0 F3600 X49.372 Y49.372
G1 F1800 X65.478 Y65.478 E77.70943
G0 F3600 X65.912 Y65.347
G1 F1800 X49.372 Y48.806 E78.29294
G0 F3600 X49.372 Y48.24
G1 F1800 X66.405 Y65.274 E78.89384
G0 F3600 X66.92 Y65.223
G1 F1800 X49.372 Y47.675 E79.51289
G0 F3600 X49.372 Y47.109
G1 F1800 X67.5 Y65.237 E80.15241
G0 F3600 X68.127 Y65.299
G1 F1800 X49.372 Y46.543 E80.81406
G0 F3600 X49.372 Y45.978
G1 F1800 X68.904 Y65.509 E81.50309
G1 X68.974 Y65.579
G0 F3600 X69.918 Y65.958
G1 F1800 X49.372 Y45.412 E82.2279
G0 F3600 X49.372 Y44.846
G1 F1800 X85.534 Y81.008 E83.50361
G0 F3600 X85.534 Y80.443
G1 F1800 X49.372 Y44.281 E84.77933
G0 F3600 X49.734 Y44.077
G1 F1800 X85.534 Y79.877 E86.04227
G0 F3600 X85.534 Y79.311
G1 F1800 X50.3 Y44.077 E87.28524
G0 F3600 X50.865 Y44.077
G1 F1800 X85.534 Y78.746 E88.50828
G0 F3600 X85.534 Y78.18
G1 F1800 X51.431 Y44.077 E89.71136
G0 F3600 X51.997 Y44.077
G1 F1800 X85.534 Y77.614 E90.89447
G0 F3600 X85.534 Y77.049
G1 F1800 X52.562 Y44.077 E92.05764
G0 F3600 X53.128 Y44.077
G1 F1800 X85.534 Y76.483 E93.20085
G0 F3600 X85.534 Y75.917
G1 F1800 X53.694 Y44.077 E94.3241
G0 F3600 X54.259 Y44.077
G1 F1800 X85.534 Y75.352 E95.42741
G0 F3600 X85.534 Y74.786
G1 F1800 X54.825 Y44.077 E96.51075
G0 F3600 X55.391 Y44.077
G1 F1800 X85.534 Y74.22 E97.57412
G0 F3600 X85.534 Y73.655
G1 F1800 X55.956 Y44.077 E98.61757
G0 F3600 X56.522 Y44.077
G1 F1800 X85.534 Y73.089 E99.64104
G0 F3600 X85.534 Y72.523
G1 F1800 X57.088 Y44.077 E100.64455
G0 F3600 X57.653 Y44.077
G1 F1800 X85.534 Y71.958 E101.62813
G0 F3600 X85.534 Y71.392
G1 F1800 X58.219 Y44.077 E102.59174
G0 F3600 X58.785 Y44.077
