;FLAVOR:Marlin
;TIME:3925
;Filament used: 6.51316m
;Layer height: 0.4
;MINX:40.489
;MINY:38.419
;MINZ:0.15
;MAXX:86.191
;MAXY:106.35
;MAXZ:66.95
;Generated with Cura_SteamEngine 4.9.0
M140 S60
M105
M190 S60
M104 S200
M105
M109 S200
M82 ;absolute extrusion mode
G28 ; Auto home
G1 Z15 F300 ;Move up slightly
M107 ;Off fans
G90 ;Switch to absolute positioning
M82 ;Extruder absolute mode
G92 E0 ;Set position of extruder to 0
G0 X10 Y20 F1500 ;Move to X10 Y20 at 1500mms
G1 Z0.8 ;Move Z to 0.8
G1 F300 X180 E40 ;Extrude a line of filament
G1 F1200 Z2 ;Raise Z
G92 E0 ;Set extruder position to zero
G28 ;Auto home
G92 E0
G92 E0
G1 F2100 E-0.8
;LAYER_COUNT:168
;LAYER:0
M107
G0 F3600 X41.486 Y39.55 Z0.15
;TYPE:SKIRT
G1 F2100 E0
G1 F1800 X41.883 Y39.19 E0.01337
G1 X42.33 Y38.892 E0.02677
G1 X42.815 Y38.664 E0.04014
G1 X43.329 Y38.511 E0.05352
G1 X43.997 Y38.429 E0.0703
G1 X44.419 Y38.419 E0.08083
G1 X81.936 Y38.419 E1.0167
G1 X82.634 Y38.429 E1.03411
G1 X83.168 Y38.477 E1.04749
G1 X83.689 Y38.603 E1.06086
G1 X84.186 Y38.806 E1.07425
G1 X84.647 Y39.08 E1.08763
G1 X85.062 Y39.419 E1.101
G1 X85.422 Y39.817 E1.11438
G1 X85.719 Y40.263 E1.12775
G1 X85.947 Y40.749 E1.14114
G1 X86.099 Y41.263 E1.15451
G1 X86.181 Y41.928 E1.17122
G1 X86.191 Y42.349 E1.18173
G1 X86.191 Y96.53 E2.53328
G1 X86.181 Y97.257 E2.55142
G1 X86.133 Y97.791 E2.56479
G1 X86.007 Y98.312 E2.57816
G1 X85.805 Y98.809 E2.59154
G1 X85.531 Y99.27 E2.60492
G1 X85.192 Y99.685 E2.61829
G1 X84.795 Y100.046 E2.63167
G1 X84.349 Y100.343 E2.64504
G1 X83.892 Y100.56 E2.65766
G1 X83.782 Y100.603 E2.66061
G1 X81.267 Y101.534 E2.72751
G1 X78.736 Y102.553 E2.79557
G1 X76.207 Y103.656 E2.86439
G1 X73.772 Y104.8 E2.9315
G1 X71.669 Y105.861 E2.99026
G1 X71.445 Y105.971 E2.99649
G1 X70.947 Y106.171 E3.00987
G1 X70.425 Y106.295 E3.02326
G1 X69.64 Y106.348 E3.04288
G1 X69.53 Y106.35 E3.04563
G1 X68.513 Y106.35 E3.071
G1 X67.735 Y106.338 E3.09041
G1 X64.943 Y106.258 E3.16008
G1 X62.213 Y106.258 E3.22818
G1 X60.711 Y106.29 E3.26566
G1 X58.936 Y106.341 E3.30995
G1 X57.935 Y106.341 E3.33492
G1 X57.231 Y106.331 E3.35249
G1 X56.697 Y106.283 E3.36586
G1 X56.176 Y106.157 E3.37923
G1 X55.672 Y105.951 E3.39281
G1 X55.516 Y105.873 E3.39716
G1 X53.052 Y104.676 E3.4655
G1 X50.586 Y103.563 E3.53299
G1 X48.063 Y102.508 E3.6012
G1 X45.47 Y101.509 E3.67052
G1 X42.901 Y100.603 E3.73847
G1 X42.41 Y100.387 E3.75186
G1 X41.957 Y100.101 E3.76522
G1 X41.551 Y99.751 E3.77859
G1 X41.201 Y99.344 E3.79198
G1 X40.916 Y98.89 E3.80535
G1 X40.701 Y98.398 E3.81875
G1 X40.562 Y97.88 E3.83212
G1 X40.501 Y97.32 E3.84618
G1 X40.489 Y96.886 E3.85701
G1 X40.489 Y42.644 E5.21008
G1 X40.498 Y41.979 E5.22667
G1 X40.546 Y41.445 E5.24004
G1 X40.672 Y40.924 E5.25341
G1 X40.874 Y40.427 E5.2668
G1 X41.147 Y39.966 E5.28016
G1 X41.486 Y39.55 E5.29355
G0 F3600 X41.878 Y39.723
G1 F1800 X42.269 Y39.402 E5.30617
G1 X42.706 Y39.147 E5.31879
G1 X43.177 Y38.963 E5.3314
G1 X43.671 Y38.857 E5.34401
G1 X44.329 Y38.82 E5.36045
G1 X81.93 Y38.819 E6.29841
G1 X82.628 Y38.829 E6.31582
G1 X83.131 Y38.876 E6.32842
G1 X83.621 Y39.002 E6.34104
G1 X84.085 Y39.204 E6.35367
G1 X84.511 Y39.476 E6.36628
G1 X84.889 Y39.811 E6.37887
G1 X85.209 Y40.202 E6.39148
G1 X85.464 Y40.639 E6.4041
G1 X85.647 Y41.11 E6.4167
G1 X85.754 Y41.604 E6.42931
G1 X85.79 Y42.259 E6.44568
G1 X85.791 Y96.524 E7.79932
G1 X85.781 Y97.251 E7.81746
G1 X85.734 Y97.754 E7.83006
G1 X85.608 Y98.244 E7.84268
G1 X85.407 Y98.708 E7.8553
G1 X85.135 Y99.134 E7.8679
G1 X84.8 Y99.513 E7.88052
G1 X84.409 Y99.833 E7.89313
G1 X83.79 Y100.17 E7.91071
G1 X83.643 Y100.228 E7.91465
G1 X81.127 Y101.159 E7.98157
G1 X78.563 Y102.191 E8.05051
G1 X76.056 Y103.285 E8.11875
G1 X73.601 Y104.439 E8.18642
G1 X71.493 Y105.502 E8.24531
G1 X71.269 Y105.612 E8.25153
G1 X70.799 Y105.799 E8.26415
G1 X70.305 Y105.909 E8.27678
G1 X69.628 Y105.949 E8.29369
G1 X68.519 Y105.95 E8.32136
G1 X67.746 Y105.938 E8.34064
G1 X64.954 Y105.858 E8.41032
G1 X62.204 Y105.858 E8.47892
G1 X60.728 Y105.89 E8.51574
G1 X59.03 Y105.94 E8.55812
G1 X57.941 Y105.941 E8.58528
G1 X57.237 Y105.931 E8.60285
G1 X56.733 Y105.884 E8.61547
G1 X56.244 Y105.758 E8.62807
G1 X55.695 Y105.515 E8.64305
G1 X53.226 Y104.315 E8.71153
G1 X50.756 Y103.2 E8.77913
G1 X48.182 Y102.124 E8.84872
G1 X45.641 Y101.146 E8.91664
G1 X43.034 Y100.226 E8.9856
G1 X42.572 Y100.02 E8.99822
G1 X42.148 Y99.745 E9.01083
G1 X41.773 Y99.406 E9.02344
G1 X41.456 Y99.012 E9.03605
G1 X41.205 Y98.573 E9.04867
G1 X41.026 Y98.1 E9.06128
G1 X40.924 Y97.605 E9.07389
G1 X40.891 Y96.985 E9.08938
G1 X40.889 Y96.886 E9.09185
G1 X40.889 Y42.65 E10.44477
G1 X40.898 Y41.985 E10.46136
G1 X40.945 Y41.481 E10.47399
G1 X41.071 Y40.992 E10.48658
G1 X41.272 Y40.528 E10.4992
G1 X41.543 Y40.101 E10.51181
G1 X41.878 Y39.723 E10.52441
G1 F2100 E9.72441
G0 F3600 X43.436 Y97.869
G0 X57.479 Y100.941
;TYPE:SUPPORT
G1 F2100 E10.52441
G1 F1800 X62.387 Y100.941 E10.64684
G1 X62.765 Y100.563 E10.66018
G1 X64.398 Y100.563 E10.70091
G1 X64.785 Y100.95 E10.71456
G1 X69.66 Y100.95 E10.83617
G1 X69.66 Y102.55 E10.87608
G1 X68.048 Y102.55 E10.9163
G1 X67.661 Y102.163 E10.92995
G1 X59.478 Y102.163 E11.13407
G1 X59.1 Y102.541 E11.14741
G1 X57.479 Y102.541 E11.18784
G1 X57.479 Y100.941 E11.22776
G0 F3600 X57.638 Y101.346
G1 F1800 X69.5 Y101.346 E11.52366
G0 F3600 X69.342 Y101.11
G1 F1800 X69.342 Y102.39 E11.55559
G0 F3600 X66.675 Y102.003
G1 F1800 X66.675 Y101.11 E11.57786
G0 F3600 X64.008 Y100.723
G1 F1800 X64.008 Y102.003 E11.60979
G0 F3600 X61.341 Y102.003
G1 F1800 X61.341 Y101.101 E11.63229
G0 F3600 X58.674 Y101.101
G1 F1800 X58.674 Y102.381 E11.66422
G1 F2100 E10.86422
;MESH:leg3.stl
G0 F3600 X58.674 Y97.881
G0 X58.674 Y96.596
G0 X81.921 Y96.546
G0 X81.991 Y96.616
;TYPE:WALL-INNER
G1 F2100 E11.66422
G1 F1800 X44.689 Y96.616 E12.59472
G1 X44.689 Y42.619 E13.94168
G1 X81.991 Y42.619 E14.87219
G1 X81.991 Y96.616 E16.21915
G0 F3600 X81.921 Y96.546
G0 X63.654 Y75.171
G0 X63.654 Y75.071
G1 F1800 X64.647 Y74.973 E16.24404
G1 X65.603 Y74.684 E16.26895
G1 X66.483 Y74.213 E16.29385
G1 X67.255 Y73.579 E16.31877
G1 X67.888 Y72.808 E16.34365
G1 X68.359 Y71.928 E16.36855
G1 X68.648 Y70.971 E16.39349
G1 X68.747 Y69.978 E16.41838
G1 X68.648 Y68.985 E16.44327
G1 X68.359 Y68.029 E16.46819
G1 X67.888 Y67.149 E16.49309
G1 X67.255 Y66.377 E16.51799
G1 X66.483 Y65.744 E16.54289
G1 X65.603 Y65.273 E16.56779
G1 X64.647 Y64.984 E16.5927
G1 X63.646 Y64.886 E16.61779
G1 X62.661 Y64.984 E16.64249
G1 X61.704 Y65.273 E16.66742
G1 X60.824 Y65.744 E16.69232
G1 X60.053 Y66.377 E16.71721
G1 X59.419 Y67.149 E16.74213
G1 X58.948 Y68.029 E16.76702
G1 X58.659 Y68.985 E16.79194
G1 X58.561 Y69.978 E16.81683
G1 X58.659 Y70.971 E16.84172
G1 X58.948 Y71.928 E16.86666
G1 X59.419 Y72.809 E16.89158
G1 X60.063 Y73.589 E16.91681
G1 X60.824 Y74.213 E16.94136
G1 X61.704 Y74.684 E16.96626
G1 X62.661 Y74.973 E16.99119
G1 X63.654 Y75.071 E17.01608
G0 F3600 X63.654 Y74.669
;TYPE:WALL-OUTER
G1 F1800 X64.569 Y74.579 E17.03902
G1 X65.449 Y74.313 E17.06195
G1 X66.26 Y73.879 E17.0849
G1 X66.971 Y73.295 E17.10785
G1 X67.554 Y72.585 E17.13076
G1 X67.988 Y71.774 E17.15371
G1 X68.254 Y70.893 E17.17667
G1 X68.345 Y69.978 E17.1996
G1 X68.254 Y69.063 E17.22254
G1 X67.988 Y68.183 E17.24547
G1 X67.554 Y67.372 E17.26842
G1 X66.971 Y66.661 E17.29135
G1 X66.26 Y66.078 E17.31429
G1 X65.449 Y65.644 E17.33724
G1 X64.569 Y65.378 E17.36017
G1 X63.646 Y65.288 E17.3833
G1 X62.739 Y65.378 E17.40604
G1 X61.858 Y65.644 E17.429
G1 X61.047 Y66.078 E17.45194
G1 X60.337 Y66.661 E17.47486
G1 X59.753 Y67.372 E17.49781
G1 X59.319 Y68.183 E17.52075
G1 X59.053 Y69.063 E17.54369
G1 X58.963 Y69.978 E17.56662
G1 X59.053 Y70.893 E17.58956
G1 X59.319 Y71.774 E17.61251
G1 X59.753 Y72.585 E17.63546
G1 X60.347 Y73.304 E17.65872
G1 X61.047 Y73.879 E17.68132
G1 X61.858 Y74.313 E17.70427
G1 X62.739 Y74.579 E17.72722
G1 X63.654 Y74.669 E17.75016
G0 F3600 X63.853 Y74.65
G0 X63.901 Y75.147
G0 X81.921 Y96.546
G0 X82.391 Y97.016
G1 F1800 X44.289 Y97.016 E18.70061
G1 X44.289 Y42.219 E20.06753
G1 X82.391 Y42.219 E21.01799
G1 X82.391 Y97.016 E22.38491
G0 F3600 X82.191 Y97.016
G0 X81.601 Y96.226
;TYPE:SKIN
G1 F1800 X45.079 Y96.226 E23.29595
G1 X45.079 Y43.009 E24.62345
G1 X81.601 Y43.009 E25.5345
G1 X81.601 Y96.226 E26.862
G0 F3600 X66.701 Y74.539
G1 F1800 X67.532 Y73.856 E26.88884
G1 X68.214 Y73.026 E26.91563
G1 X68.721 Y72.078 E26.94245
G1 X69.032 Y71.047 E26.96931
G1 X69.139 Y69.978 E26.99611
G1 X69.032 Y68.909 E27.02291
G1 X68.721 Y67.879 E27.04975
G1 X68.214 Y66.931 E27.07657
G1 X67.532 Y66.1 E27.10339
G1 X66.701 Y65.418 E27.1302
G1 X65.753 Y64.911 E27.15702
G1 X64.723 Y64.6 E27.18386
G1 X63.646 Y64.494 E27.21086
G1 X62.585 Y64.6 E27.23745
G1 X61.554 Y64.911 E27.26432
G1 X60.606 Y65.418 E27.29113
G1 X59.776 Y66.1 E27.31793
G1 X59.093 Y66.931 E27.34476
G1 X58.586 Y67.879 E27.37158
G1 X58.275 Y68.909 E27.39842
G1 X58.169 Y69.978 E27.42522
G1 X58.275 Y71.047 E27.45201
G1 X58.586 Y72.078 E27.47888
G1 X59.093 Y73.027 E27.50572
G1 X59.786 Y73.866 E27.53286
G1 X60.606 Y74.539 E27.55932
G1 X61.554 Y75.046 E27.58614
G1 X62.585 Y75.357 E27.61301
G1 X63.654 Y75.463 E27.6398
G1 X64.723 Y75.357 E27.6666
G1 X65.753 Y75.046 E27.69344
G1 X66.701 Y74.539 E27.72026
G0 F3600 X45.698 Y96.044
G1 F1800 X45.258 Y95.604 E27.73578
G0 F3600 X45.258 Y95.038
G1 F1800 X46.264 Y96.044 E27.77127
G0 F3600 X46.83 Y96.044
G1 F1800 X45.258 Y94.473 E27.82671
G0 F3600 X45.258 Y93.907
G1 F1800 X47.395 Y96.044 E27.90209
G0 F3600 X47.961 Y96.044
G1 F1800 X45.258 Y93.341 E27.99745
G0 F3600 X45.258 Y92.775
G1 F1800 X48.527 Y96.044 E28.11277
G0 F3600 X49.093 Y96.044
G1 F1800 X45.258 Y92.21 E28.24805
G0 F3600 X45.258 Y91.644
G1 F1800 X49.658 Y96.044 E28.40327
G0 F3600 X50.224 Y96.044
G1 F1800 X45.258 Y91.078 E28.57846
G0 F3600 X45.258 Y90.513
G1 F1800 X50.79 Y96.044 E28.7736
G0 F3600 X51.355 Y96.044
G1 F1800 X45.258 Y89.947 E28.98868
G0 F3600 X45.258 Y89.381
G1 F1800 X51.921 Y96.044 E29.22374
G0 F3600 X52.487 Y96.044
G1 F1800 X45.258 Y88.816 E29.47874
G0 F3600 X45.258 Y88.25
G1 F1800 X53.052 Y96.044 E29.7537
G0 F3600 X53.618 Y96.044
G1 F1800 X45.258 Y87.684 E30.04862
G0 F3600 X45.258 Y87.119
G1 F1800 X54.184 Y96.044 E30.36349
G0 F3600 X54.749 Y96.044
G1 F1800 X45.258 Y86.553 E30.69831
G0 F3600 X45.258 Y85.987
G1 F1800 X55.315 Y96.044 E31.0531
G0 F3600 X55.881 Y96.044
G1 F1800 X45.258 Y85.422 E31.42784
G0 F3600 X45.258 Y84.856
G1 F1800 X56.446 Y96.044 E31.82252
G0 F3600 X57.012 Y96.044
G1 F1800 X45.258 Y84.29 E32.23718
G0 F3600 X45.258 Y83.724
G1 F1800 X57.578 Y96.044 E32.6718
G0 F3600 X58.143 Y96.044
G1 F1800 X45.258 Y83.159 E33.12635
G0 F3600 X45.258 Y82.593
G1 F1800 X58.709 Y96.044 E33.60087
G0 F3600 X59.275 Y96.044
G1 F1800 X45.258 Y82.027 E34.09536
G0 F3600 X45.258 Y81.462
G1 F1800 X59.841 Y96.044 E34.6098
G0 F3600 X60.406 Y96.044
G1 F1800 X45.258 Y80.896 E35.14418
G0 F3600 X45.258 Y80.33
G1 F1800 X60.972 Y96.044 E35.69854
G0 F3600 X61.538 Y96.044
G1 F1800 X45.258 Y79.765 E36.27284
G0 F3600 X45.258 Y79.199
G1 F1800 X62.103 Y96.044 E36.86709
G0 F3600 X62.669 Y96.044
G1 F1800 X45.258 Y78.633 E37.48131
G0 F3600 X45.258 Y78.068
G1 F1800 X63.235 Y96.044 E38.11548
G0 F3600 X63.8 Y96.044
G1 F1800 X45.258 Y77.502 E38.7696
G0 F3600 X45.258 Y76.936
G1 F1800 X64.366 Y96.044 E39.44369
G0 F3600 X64.932 Y96.044
G1 F1800 X45.258 Y76.371 E40.13772
G0 F3600 X45.258 Y75.805
G1 F1800 X65.497 Y96.044 E40.85171
G0 F3600 X66.063 Y96.044
G1 F1800 X45.258 Y75.239 E41.58566
G0 F3600 X45.258 Y74.674
G1 F1800 X66.629 Y96.044 E42.33956
G0 F3600 X67.194 Y96.044
G1 F1800 X45.258 Y74.108 E43.11342
G0 F3600 X45.258 Y73.542
G1 F1800 X67.76 Y96.044 E43.90723
G0 F3600 X68.326 Y96.044
G1 F1800 X45.258 Y72.976 E44.72102
G0 F3600 X45.258 Y72.411
G1 F1800 X68.891 Y96.044 E45.55474
G0 F3600 X69.457 Y96.044
G1 F1800 X45.258 Y71.845 E46.40842
G0 F3600 X45.258 Y71.279
G1 F1800 X70.023 Y96.044 E47.28208
G0 F3600 X70.589 Y96.044
G1 F1800 X45.258 Y70.714 E48.17568
G0 F3600 X45.258 Y70.148
G1 F1800 X71.154 Y96.044 E49.08923
G0 F3600 X71.72 Y96.044
G1 F1800 X45.258 Y69.582 E50.02275
G0 F3600 X45.258 Y69.017
G1 F1800 X72.286 Y96.044 E50.97622
G0 F3600 X72.851 Y96.044
G1 F1800 X45.258 Y68.451 E51.94963
G0 F3600 X45.258 Y67.885
G1 F1800 X73.417 Y96.044 E52.94302
G0 F3600 X73.983 Y96.044
G1 F1800 X45.258 Y67.32 E53.95635
G0 F3600 X45.258 Y66.754
G1 F1800 X74.548 Y96.044 E54.98964
G0 F3600 X75.114 Y96.044
G1 F1800 X45.258 Y66.188 E56.04289
G0 F3600 X45.258 Y65.623
G1 F1800 X75.68 Y96.044 E57.11609
G0 F3600 X76.245 Y96.044
G1 F1800 X45.258 Y65.057 E58.20924
G0 F3600 X45.258 Y64.491
G1 F1800 X76.811 Y96.044 E59.32236
G0 F3600 X77.377 Y96.044
G1 F1800 X45.258 Y63.925 E60.45544
G0 F3600 X45.258 Y63.36
G1 F1800 X77.942 Y96.044 E61.60846
G0 F3600 X78.508 Y96.044
G1 F1800 X45.258 Y62.794 E62.78144
G0 F3600 X45.258 Y62.228
G1 F1800 X79.074 Y96.044 E63.97439
G0 F3600 X79.64 Y96.044
G1 F1800 X45.258 Y61.663 E65.18729
G0 F3600 X45.258 Y61.097
G1 F1800 X80.205 Y96.044 E66.42014
G0 F3600 X80.771 Y96.044
G1 F1800 X45.258 Y60.531 E67.67296
G0 F3600 X45.258 Y59.966
G1 F1800 X81.337 Y96.044 E68.94572
G0 F3600 X81.421 Y95.563
G1 F1800 X60.594 Y74.736 E69.68045
G1 X60.524 Y74.666
G0 F3600 X61.702 Y75.278
G1 F1800 X81.421 Y94.997 E70.37609
G0 F3600 X81.421 Y94.431
G1 F1800 X62.511 Y75.521 E71.04319
G0 F3600 X63.148 Y75.593
G1 F1800 X81.421 Y93.866 E71.68782
G0 F3600 X81.421 Y93.3
G1 F1800 X63.754 Y75.633 E72.31108
G0 F3600 X64.268 Y75.582
G1 F1800 X81.421 Y92.734 E72.91618
G0 F3600 X81.421 Y92.169
G1 F1800 X64.78 Y75.528 E73.50323
G0 F3600 X65.214 Y75.396
G1 F1800 X81.421 Y91.603 E74.07498
G0 F3600 X81.421 Y91.037
G1 F1800 X65.648 Y75.265 E74.6314
G0 F3600 X66.043 Y75.094
G1 F1800 X81.421 Y90.472 E75.1739
G0 F3600 X81.421 Y89.906
G1 F1800 X66.412 Y74.897 E75.70338
G0 F3600 X66.78 Y74.7
G1 F1800 X81.421 Y89.34 E76.21986
G0 F3600 X81.421 Y88.775
G1 F1800 X67.094 Y74.448 E76.72529
G0 F3600 X67.404 Y74.193
G1 F1800 X81.421 Y88.209 E77.21976
G0 F3600 X81.421 Y87.643
G1 F1800 X67.705 Y73.928 E77.70361
G0 F3600 X67.96 Y73.617
G1 F1800 X81.421 Y87.078 E78.17848
G0 F3600 X81.421 Y86.512
G1 F1800 X68.215 Y73.306 E78.64436
G0 F3600 X68.446 Y72.972
G1 F1800 X81.421 Y85.946 E79.10207
G0 F3600 X81.421 Y85.381
G1 F1800 X68.643 Y72.603 E79.55285
G0 F3600 X68.84 Y72.234
G1 F1800 X81.421 Y84.815 E79.99668
G0 F3600 X81.421 Y84.249
G1 F1800 X68.987 Y71.815 E80.43532
G0 F3600 X69.118 Y71.381
G1 F1800 X81.421 Y83.683 E80.86932
G0 F3600 X81.421 Y83.118
G1 F1800 X69.224 Y70.921 E81.2996
G0 F3600 X69.276 Y70.408
G1 F1800 X81.421 Y82.552 E81.72803
G0 F3600 X81.421 Y81.986
G1 F1800 X69.309 Y69.875 E82.1553
G0 F3600 X69.246 Y69.246
G1 F1800 X81.421 Y81.421 E82.58481
G0 F3600 X81.421 Y80.855
G1 F1800 X69.109 Y68.543 E83.01915
G1 X69.039 Y68.473
G0 F3600 X68.826 Y67.694
G1 F1800 X81.421 Y80.289 E83.46347
G0 F3600 X81.421 Y79.724
G1 F1800 X45.258 Y43.561 E84.73922
G0 F3600 X45.452 Y43.189
G1 F1800 X81.421 Y79.158 E86.00812
G0 F3600 X81.421 Y78.592
G1 F1800 X46.017 Y43.189 E87.25707
G0 F3600 X46.583 Y43.189
G1 F1800 X81.421 Y78.027 E88.48608
G0 F3600 X81.421 Y77.461
G1 F1800 X47.149 Y43.189 E89.69511
G0 F3600 X47.714 Y43.189
G1 F1800 X81.421 Y76.895 E90.8842
G0 F3600 X81.421 Y76.33
G1 F1800 X48.28 Y43.189 E92.05334
G0 F3600 X48.846 Y43.189
G1 F1800 X81.421 Y75.764 E93.20251
G0 F3600 X81.421 Y75.198
G1 F1800 X49.411 Y43.189 E94.33173
G0 F3600 X49.977 Y43.189
G1 F1800 X81.421 Y74.632 E95.44099
G0 F3600 X81.421 Y74.067
G1 F1800 X50.543 Y43.189 E96.53029
G0 F3600 X51.108 Y43.189
G1 F1800 X81.421 Y73.501 E97.59965
G0 F3600 X81.421 Y72.935
G1 F1800 X51.674 Y43.189 E98.64904
G0 F3600 X52.24 Y43.189
G1 F1800 X81.421 Y72.37 E99.67847
G0 F3600 X81.421 Y71.804
G1 F1800 X52.806 Y43.189 E100.68795
G0 F3600 X53.371 Y43.189
G1 F1800 X81.421 Y71.238 E101.67747
G0 F3600 X81.421 Y70.673
G1 F1800 X53.937 Y43.189 E102.64704
G0 F3600 X54.503 Y43.189
G1 F1800 X81.421 Y70.107 E103.59665
G0 F3600 X81.421 Y69.541
G1 F1800 X55.068 Y43.189 E104.5263
G0 F3600 X55.634 Y43.189
G1 F1800 X81.421 Y68.976 E105.43601
G0 F3600 X81.421 Y68.41
G1 F1800 X56.2 Y43.189 E106.32575
G0 F3600 X56.765 Y43.189
G1 F1800 X81.421 Y67.844 E107.19554
G0 F3600 X81.421 Y67.279
