;FLAVOR:Marlin
;TIME:3648
;Filament used: 6.01608m
;Layer height: 0.4
;MINX:33.737
;MINY:40.136
;MINZ:0.15
;MAXX:79.439
;MAXY:109.647
;MAXZ:66.95
;Generated with Cura_SteamEngine 4.9.0
M140 S60
M105
M190 S60
M104 S200
M105
M109 S200
M82 ;absolute extrusion mode
G28 ; Auto home
G1 Z15 F300 ;Move up slightly
M107 ;Off fans
G90 ;Switch to absolute positioning
M82 ;Extruder absolute mode
G92 E0 ;Set position of extruder to 0
G0 X10 Y20 F1500 ;Move to X10 Y20 at 1500mms
G1 Z0.8 ;Move Z to 0.8
G1 F300 X180 E40 ;Extrude a line of filament
G1 F1200 Z2 ;Raise Z
G92 E0 ;Set extruder position to zero
G28 ;Auto home
G92 E0
G92 E0
G1 F2100 E-0.8
;LAYER_COUNT:168
;LAYER:0
M107
G0 F3600 X35.131 Y40.907 Z0.15
;TYPE:SKIRT
G1 F2100 E0
G1 F1800 X35.578 Y40.609 E0.0134
G1 X36.063 Y40.381 E0.02677
G1 X36.577 Y40.228 E0.04015
G1 X37.245 Y40.146 E0.05694
G1 X37.667 Y40.136 E0.06747
G1 X75.184 Y40.136 E1.00333
G1 X75.882 Y40.146 E1.02074
G1 X76.416 Y40.194 E1.03412
G1 X76.937 Y40.32 E1.04749
G1 X77.434 Y40.523 E1.06088
G1 X77.895 Y40.797 E1.07426
G1 X78.31 Y41.136 E1.08763
G1 X78.67 Y41.534 E1.10101
G1 X78.967 Y41.98 E1.11438
G1 X79.195 Y42.466 E1.12777
G1 X79.347 Y42.98 E1.14114
G1 X79.429 Y43.645 E1.15786
G1 X79.439 Y44.066 E1.16836
G1 X79.439 Y99.347 E2.54735
G1 X79.429 Y100.075 E2.56551
G1 X79.381 Y100.61 E2.57891
G1 X79.255 Y101.131 E2.59228
G1 X79.053 Y101.628 E2.60567
G1 X78.779 Y102.089 E2.61904
G1 X78.44 Y102.504 E2.63241
G1 X78.043 Y102.865 E2.6458
G1 X77.597 Y103.162 E2.65916
G1 X77.132 Y103.382 E2.67199
G1 X76.722 Y103.541 E2.68296
G1 X74.722 Y104.282 E2.73617
G1 X72.198 Y105.299 E2.80405
G1 X69.71 Y106.387 E2.87179
G1 X67.245 Y107.545 E2.93972
G1 X64.732 Y108.816 E3.00997
G1 X64.438 Y108.948 E3.01801
G1 X63.928 Y109.113 E3.03138
G1 X63.183 Y109.213 E3.05013
G1 X62.003 Y109.246 E3.07958
G1 X60.662 Y109.274 E3.11304
G1 X57.683 Y109.423 E3.18744
G1 X57.165 Y109.449 E3.20038
G1 X56.731 Y109.454 E3.21121
G1 X53.982 Y109.523 E3.2798
G1 X52.107 Y109.622 E3.32664
G1 X51.529 Y109.642 E3.34107
G1 X51.095 Y109.647 E3.35189
G1 X50.275 Y109.647 E3.37235
G1 X49.571 Y109.636 E3.38991
G1 X49.037 Y109.587 E3.40329
G1 X48.516 Y109.46 E3.41667
G1 X47.873 Y109.18 E3.43416
G1 X45.391 Y107.796 E3.50505
G1 X42.994 Y106.546 E3.57249
G1 X40.549 Y105.359 E3.64028
G1 X38.033 Y104.224 E3.70914
G1 X36.355 Y103.522 E3.75451
G1 X35.913 Y103.33 E3.76653
G1 X35.438 Y103.08 E3.77992
G1 X35.006 Y102.763 E3.79329
G1 X34.626 Y102.385 E3.80666
G1 X34.306 Y101.954 E3.82005
G1 X34.053 Y101.481 E3.83343
G1 X33.874 Y100.976 E3.84679
G1 X33.772 Y100.449 E3.86018
G1 X33.739 Y99.815 E3.87602
G1 X33.737 Y99.704 E3.87879
G1 X33.737 Y44.361 E5.25933
G1 X33.746 Y43.696 E5.27592
G1 X33.794 Y43.162 E5.28929
G1 X33.92 Y42.641 E5.30266
G1 X34.122 Y42.144 E5.31604
G1 X34.395 Y41.683 E5.32941
G1 X34.734 Y41.267 E5.3428
G1 X35.131 Y40.907 E5.35616
G0 F3600 X35.517 Y41.119
G1 F1800 X35.954 Y40.864 E5.36879
G1 X36.425 Y40.68 E5.3814
G1 X36.919 Y40.574 E5.394
G1 X37.577 Y40.537 E5.41044
G1 X75.178 Y40.536 E6.3484
G1 X75.876 Y40.546 E6.36582
G1 X76.379 Y40.593 E6.37842
G1 X76.869 Y40.719 E6.39104
G1 X77.333 Y40.921 E6.40366
G1 X77.759 Y41.193 E6.41627
G1 X78.137 Y41.528 E6.42887
G1 X78.457 Y41.919 E6.44147
G1 X78.712 Y42.356 E6.4541
G1 X78.895 Y42.827 E6.4667
G1 X79.002 Y43.321 E6.47931
G1 X79.038 Y43.976 E6.49567
G1 X79.039 Y99.342 E7.87678
G1 X79.029 Y100.07 E7.89495
G1 X78.982 Y100.573 E7.90755
G1 X78.856 Y101.063 E7.92017
G1 X78.655 Y101.527 E7.93278
G1 X78.384 Y101.953 E7.94538
G1 X78.048 Y102.332 E7.95801
G1 X77.657 Y102.652 E7.97061
G1 X77.221 Y102.907 E7.98321
G1 X76.629 Y103.148 E7.99916
G1 X74.569 Y103.912 E8.05397
G1 X72.038 Y104.932 E8.12204
G1 X69.545 Y106.022 E8.18991
G1 X67.072 Y107.184 E8.25807
G1 X64.551 Y108.459 E8.32854
G1 X64.287 Y108.577 E8.33575
G1 X63.806 Y108.731 E8.34835
G1 X63.172 Y108.813 E8.3643
G1 X61.995 Y108.846 E8.39367
G1 X60.633 Y108.875 E8.42765
G1 X57.699 Y109.021 E8.50093
G1 X57.16 Y109.049 E8.5144
G1 X56.717 Y109.054 E8.52545
G1 X53.987 Y109.122 E8.59357
G1 X52.092 Y109.222 E8.64091
G1 X51.525 Y109.242 E8.65506
G1 X51.091 Y109.247 E8.66589
G1 X50.281 Y109.247 E8.68609
G1 X49.577 Y109.236 E8.70365
G1 X49.074 Y109.188 E8.71626
G1 X48.584 Y109.061 E8.72889
G1 X48.068 Y108.831 E8.74298
G1 X45.592 Y107.45 E8.8137
G1 X43.146 Y106.176 E8.8825
G1 X40.71 Y104.992 E8.95006
G1 X38.216 Y103.867 E9.01831
G1 X36.514 Y103.155 E9.06433
G1 X36.072 Y102.963 E9.07635
G1 X35.626 Y102.726 E9.08895
G1 X35.222 Y102.421 E9.10158
G1 X34.872 Y102.056 E9.11419
G1 X34.583 Y101.641 E9.12681
G1 X34.364 Y101.186 E9.1394
G1 X34.219 Y100.702 E9.15201
G1 X34.149 Y100.127 E9.16646
G1 X34.137 Y99.704 E9.17701
G1 X34.137 Y44.367 E10.5574
G1 X34.146 Y43.702 E10.57399
G1 X34.193 Y43.198 E10.58662
G1 X34.319 Y42.709 E10.59921
G1 X34.52 Y42.245 E10.61183
G1 X34.791 Y41.818 E10.62444
G1 X35.126 Y41.44 E10.63704
G1 X35.517 Y41.119 E10.64966
G1 F2100 E9.84966
G0 F3600 X36.684 Y100.687
G0 X49.824 Y104.247
;TYPE:SUPPORT
G1 F2100 E10.64966
G1 F1800 X54.948 Y104.247 E10.77748
G1 X55.299 Y104.054 E10.78747
G1 X60.828 Y104.054 E10.92539
G1 X61.154 Y103.823 E10.93536
G1 X62.89 Y103.823 E10.97867
G1 X62.89 Y105.423 E11.01858
G1 X57.509 Y105.423 E11.15281
G1 X57.183 Y105.654 E11.16277
G1 X51.923 Y105.654 E11.29399
G1 X51.572 Y105.847 E11.30398
G1 X49.824 Y105.847 E11.34758
G1 X49.824 Y104.247 E11.38749
G0 F3600 X50.673 Y104.407
G1 F1800 X50.673 Y105.687 E11.41942
G0 F3600 X53.34 Y105.494
G1 F1800 X53.34 Y104.407 E11.44654
G0 F3600 X56.007 Y104.214
G1 F1800 X56.007 Y105.494 E11.47847
G0 F3600 X58.674 Y105.263
G1 F1800 X58.674 Y104.214 E11.50464
G0 F3600 X61.162 Y104.013
G1 F1800 X62.729 Y104.013 E11.54372
G0 F3600 X61.341 Y103.983
G1 F1800 X61.341 Y105.263 E11.57565
G1 F2100 E10.77565
;MESH:leg2.stl
G0 F3600 X61.341 Y100.699
G0 X61.341 Y99.414
G0 X75.169 Y99.364
G0 X75.239 Y99.434
;TYPE:WALL-INNER
G1 F2100 E11.57565
G1 F1800 X37.937 Y99.434 E12.50616
G1 X37.937 Y44.336 E13.88058
G1 X75.239 Y44.336 E14.81108
G1 X75.239 Y99.434 E16.18551
G0 F3600 X75.169 Y99.364
G0 X56.273 Y77.324
G0 X56.273 Y77.224
G1 F1800 X57.352 Y77.117 E16.21256
G1 X58.392 Y76.803 E16.23966
G1 X59.35 Y76.291 E16.26675
G1 X60.187 Y75.602 E16.2938
G1 X60.876 Y74.763 E16.32088
G1 X61.388 Y73.806 E16.34795
G1 X61.703 Y72.767 E16.37504
G1 X61.81 Y71.687 E16.40211
G1 X61.703 Y70.607 E16.42918
G1 X61.388 Y69.568 E16.45626
G1 X60.876 Y68.611 E16.48334
G1 X60.187 Y67.772 E16.51042
G1 X59.349 Y67.084 E16.53747
G1 X58.392 Y66.572 E16.56454
G1 X57.352 Y66.257 E16.59165
G1 X56.375 Y66.161 E16.61614
G1 X56.304 Y66.147 E16.61794
G1 X55.193 Y66.257 E16.64579
G1 X54.153 Y66.572 E16.6729
G1 X53.196 Y67.084 E16.69997
G1 X52.358 Y67.772 E16.72702
G1 X51.669 Y68.611 E16.7541
G1 X51.157 Y69.568 E16.78117
G1 X50.842 Y70.607 E16.80826
G1 X50.735 Y71.687 E16.83533
G1 X50.842 Y72.767 E16.8624
G1 X51.157 Y73.806 E16.88949
G1 X51.669 Y74.763 E16.91656
G1 X52.358 Y75.602 E16.94364
G1 X53.195 Y76.291 E16.97068
G1 X54.153 Y76.803 E16.99778
G1 X55.193 Y77.117 E17.02488
G1 X56.273 Y77.224 E17.05195
G0 F3600 X56.273 Y76.822
;TYPE:WALL-OUTER
G1 F1800 X57.274 Y76.723 E17.07704
G1 X58.238 Y76.432 E17.10216
G1 X59.126 Y75.957 E17.12728
G1 X59.903 Y75.318 E17.15238
G1 X60.542 Y74.54 E17.17749
G1 X61.017 Y73.652 E17.20261
G1 X61.309 Y72.689 E17.22772
G1 X61.408 Y71.687 E17.25283
G1 X61.309 Y70.685 E17.27795
G1 X61.017 Y69.722 E17.30305
G1 X60.542 Y68.834 E17.32817
G1 X59.903 Y68.056 E17.35329
G1 X59.126 Y67.418 E17.37837
G1 X58.238 Y66.943 E17.40349
G1 X57.274 Y66.651 E17.42861
G1 X56.312 Y66.557 E17.45273
G1 X56.283 Y66.551 E17.45346
G1 X55.271 Y66.651 E17.47883
G1 X54.307 Y66.943 E17.50396
G1 X53.419 Y67.418 E17.52908
G1 X52.642 Y68.056 E17.55416
G1 X52.003 Y68.834 E17.57927
G1 X51.528 Y69.722 E17.60439
G1 X51.236 Y70.685 E17.6295
G1 X51.137 Y71.687 E17.65461
G1 X51.236 Y72.689 E17.67973
G1 X51.528 Y73.652 E17.70483
G1 X52.003 Y74.54 E17.72995
G1 X52.642 Y75.318 E17.75507
G1 X53.419 Y75.957 E17.78016
G1 X54.307 Y76.432 E17.80528
G1 X55.271 Y76.723 E17.8304
G1 X56.273 Y76.822 E17.85552
G0 F3600 X56.472 Y76.803
G0 X56.52 Y77.3
G0 X75.169 Y99.364
G0 X75.639 Y99.834
G1 F1800 X37.537 Y99.834 E18.80598
G1 X37.537 Y43.936 E20.20036
G1 X75.639 Y43.936 E21.15082
G1 X75.639 Y99.834 E22.5452
G0 F3600 X75.439 Y99.834
G0 X74.849 Y99.044
;TYPE:SKIN
G1 F1800 X38.327 Y99.044 E23.45624
G1 X38.327 Y44.726 E24.81121
G1 X74.849 Y44.726 E25.72226
G1 X74.849 Y99.044 E27.07722
G0 F3600 X59.568 Y76.617
G1 F1800 X60.464 Y75.879 E27.10618
G1 X61.202 Y74.981 E27.13517
G1 X61.75 Y73.956 E27.16417
G1 X62.087 Y72.843 E27.19318
G1 X62.202 Y71.687 E27.22216
G1 X62.087 Y70.531 E27.25113
G1 X61.75 Y69.418 E27.28014
G1 X61.202 Y68.393 E27.30914
G1 X60.464 Y67.495 E27.33813
G1 X59.567 Y66.758 E27.36709
G1 X58.542 Y66.21 E27.39609
G1 X57.428 Y65.873 E27.42512
G1 X56.43 Y65.775 E27.45013
G1 X56.324 Y65.753 E27.45283
G1 X55.117 Y65.873 E27.48309
G1 X54.003 Y66.21 E27.51212
G1 X52.978 Y66.758 E27.54112
G1 X52.081 Y67.495 E27.57008
G1 X51.343 Y68.393 E27.59907
G1 X50.795 Y69.418 E27.62806
G1 X50.458 Y70.531 E27.65707
G1 X50.343 Y71.687 E27.68605
G1 X50.458 Y72.843 E27.71503
G1 X50.795 Y73.956 E27.74404
G1 X51.343 Y74.981 E27.77303
G1 X52.081 Y75.879 E27.80203
G1 X52.977 Y76.617 E27.83098
G1 X54.003 Y77.165 E27.86
G1 X55.117 Y77.501 E27.88903
G1 X56.273 Y77.616 E27.918
G1 X57.428 Y77.501 E27.94696
G1 X58.542 Y77.165 E27.97598
G1 X59.568 Y76.617 E28.005
G0 F3600 X38.9 Y98.862
G1 F1800 X38.506 Y98.469 E28.01888
G0 F3600 X38.506 Y97.903
G1 F1800 X39.465 Y98.862 E28.05271
G0 F3600 X40.031 Y98.862
G1 F1800 X38.506 Y97.338 E28.10649
G0 F3600 X38.506 Y96.772
G1 F1800 X40.597 Y98.862 E28.18024
G0 F3600 X41.162 Y98.862
G1 F1800 X38.506 Y96.206 E28.27394
G0 F3600 X38.506 Y95.641
G1 F1800 X41.728 Y98.862 E28.38759
G0 F3600 X42.294 Y98.862
G1 F1800 X38.506 Y95.075 E28.5212
G0 F3600 X38.506 Y94.509
G1 F1800 X42.859 Y98.862 E28.67476
G0 F3600 X43.425 Y98.862
G1 F1800 X38.506 Y93.944 E28.84828
G0 F3600 X38.506 Y93.378
G1 F1800 X43.991 Y98.862 E29.04176
G0 F3600 X44.556 Y98.862
G1 F1800 X38.506 Y92.812 E29.25519
G0 F3600 X38.506 Y92.247
G1 F1800 X45.122 Y98.862 E29.48857
G0 F3600 X45.688 Y98.862
G1 F1800 X38.506 Y91.681 E29.74191
G0 F3600 X38.506 Y91.115
G1 F1800 X46.253 Y98.862 E30.01521
G0 F3600 X46.819 Y98.862
G1 F1800 X38.506 Y90.549 E30.30847
G0 F3600 X38.506 Y89.984
G1 F1800 X47.385 Y98.862 E30.62169
G0 F3600 X47.951 Y98.862
G1 F1800 X38.506 Y89.418 E30.95487
G0 F3600 X38.506 Y88.852
G1 F1800 X48.516 Y98.862 E31.308
G0 F3600 X49.082 Y98.862
G1 F1800 X38.506 Y88.287 E31.68108
G0 F3600 X38.506 Y87.721
G1 F1800 X49.648 Y98.862 E32.07412
G0 F3600 X50.213 Y98.862
G1 F1800 X38.506 Y87.155 E32.48712
G0 F3600 X38.506 Y86.59
G1 F1800 X50.779 Y98.862 E32.92006
G0 F3600 X51.345 Y98.862
G1 F1800 X38.506 Y86.024 E33.37298
G0 F3600 X38.506 Y85.458
G1 F1800 X51.91 Y98.862 E33.84584
G0 F3600 X52.476 Y98.862
G1 F1800 X38.506 Y84.893 E34.33865
G0 F3600 X38.506 Y84.327
G1 F1800 X53.042 Y98.862 E34.85143
G0 F3600 X53.607 Y98.862
G1 F1800 X38.506 Y83.761 E35.38416
G0 F3600 X38.506 Y83.196
G1 F1800 X54.173 Y98.862 E35.93684
G0 F3600 X54.739 Y98.862
G1 F1800 X38.506 Y82.63 E36.50948
G0 F3600 X38.506 Y82.064
G1 F1800 X55.304 Y98.862 E37.10208
G0 F3600 X55.87 Y98.862
G1 F1800 X38.506 Y81.499 E37.71462
G0 F3600 X38.506 Y80.933
G1 F1800 X56.436 Y98.862 E38.34713
G0 F3600 X57.001 Y98.862
G1 F1800 X38.506 Y80.367 E38.99959
G0 F3600 X38.506 Y79.801
G1 F1800 X57.567 Y98.862 E39.67202
G0 F3600 X58.133 Y98.862
G1 F1800 X38.506 Y79.236 E40.3644
G0 F3600 X38.506 Y78.67
G1 F1800 X58.699 Y98.862 E41.07675
G0 F3600 X59.264 Y98.862
G1 F1800 X38.506 Y78.104 E41.80904
G0 F3600 X38.506 Y77.539
G1 F1800 X59.83 Y98.862 E42.56128
G0 F3600 X60.396 Y98.862
G1 F1800 X38.506 Y76.973 E43.3335
G0 F3600 X38.506 Y76.407
G1 F1800 X60.961 Y98.862 E44.12566
G0 F3600 X61.527 Y98.862
G1 F1800 X38.506 Y75.842 E44.93777
G0 F3600 X38.506 Y75.276
G1 F1800 X62.093 Y98.862 E45.76984
G0 F3600 X62.658 Y98.862
G1 F1800 X38.506 Y74.71 E46.62187
G0 F3600 X38.506 Y74.145
G1 F1800 X63.224 Y98.862 E47.49385
G0 F3600 X63.79 Y98.862
G1 F1800 X38.506 Y73.579 E48.38579
G0 F3600 X38.506 Y73.013
G1 F1800 X64.355 Y98.862 E49.29768
G0 F3600 X64.921 Y98.862
G1 F1800 X38.506 Y72.448 E50.22953
G0 F3600 X38.506 Y71.882
G1 F1800 X65.487 Y98.862 E51.18134
G0 F3600 X66.052 Y98.862
G1 F1800 X38.506 Y71.316 E52.1531
G0 F3600 X38.506 Y70.75
G1 F1800 X66.618 Y98.862 E53.14482
G0 F3600 X67.184 Y98.862
G1 F1800 X38.506 Y70.185 E54.1565
G0 F3600 X38.506 Y69.619
G1 F1800 X67.75 Y98.862 E55.18814
G0 F3600 X68.315 Y98.862
G1 F1800 X38.506 Y69.053 E56.23974
G0 F3600 X38.506 Y68.488
G1 F1800 X68.881 Y98.862 E57.31128
G0 F3600 X69.447 Y98.862
G1 F1800 X38.506 Y67.922 E58.40279
G0 F3600 X38.506 Y67.356
G1 F1800 X70.012 Y98.862 E59.51425
G0 F3600 X70.578 Y98.862
G1 F1800 X38.506 Y66.791 E60.64566
G0 F3600 X38.506 Y66.225
G1 F1800 X71.144 Y98.862 E61.79703
G0 F3600 X71.709 Y98.862
G1 F1800 X38.506 Y65.659 E62.96836
G0 F3600 X38.506 Y65.094
G1 F1800 X72.275 Y98.862 E64.15963
G0 F3600 X72.841 Y98.862
G1 F1800 X38.506 Y64.528 E65.37087
G0 F3600 X38.506 Y63.962
G1 F1800 X73.406 Y98.862 E66.60207
G0 F3600 X73.972 Y98.862
G1 F1800 X38.506 Y63.397 E67.85321
G0 F3600 X38.506 Y62.831
G1 F1800 X74.538 Y98.862 E69.12432
G0 F3600 X74.669 Y98.427
G1 F1800 X53.159 Y76.918 E69.88312
G1 X53.089 Y76.848
G0 F3600 X54.227 Y77.42
G1 F1800 X74.669 Y97.862 E70.60427
G0 F3600 X74.669 Y97.296
G1 F1800 X55.036 Y77.664 E71.29686
G0 F3600 X55.674 Y77.736
G1 F1800 X74.669 Y96.73 E71.96694
G0 F3600 X74.669 Y96.165
G1 F1800 X56.297 Y77.793 E72.61506
G0 F3600 X56.811 Y77.742
G1 F1800 X74.669 Y95.599 E73.24503
G0 F3600 X74.669 Y95.033
G1 F1800 X57.326 Y77.691 E73.85684
G0 F3600 X57.782 Y77.581
G1 F1800 X74.669 Y94.468 E74.45257
G0 F3600 X74.669 Y93.902
G1 F1800 X58.217 Y77.45 E75.03296
G0 F3600 X58.646 Y77.313
G1 F1800 X74.669 Y93.336 E75.59822
G0 F3600 X74.669 Y92.77
G1 F1800 X59.014 Y77.116 E76.15047
G0 F3600 X59.383 Y76.919
G1 F1800 X74.669 Y92.205 E76.68973
G0 F3600 X74.669 Y91.639
G1 F1800 X59.739 Y76.709 E77.21642
G0 F3600 X60.049 Y76.454
G1 F1800 X74.669 Y91.073 E77.73216
G0 F3600 X74.669 Y90.508
G1 F1800 X60.359 Y76.198 E78.23699
G0 F3600 X60.655 Y75.929
G1 F1800 X74.669 Y89.942 E78.73135
G0 F3600 X74.669 Y89.376
G1 F1800 X60.91 Y75.618 E79.21672
G0 F3600 X61.166 Y75.308
G1 F1800 X74.669 Y88.811 E79.69307
G0 F3600 X74.669 Y88.245
G1 F1800 X61.405 Y74.981 E80.161
G0 F3600 X61.602 Y74.613
G1 F1800 X74.669 Y87.679 E80.62195
G0 F3600 X74.669 Y87.114
G1 F1800 X61.799 Y74.244 E81.07598
G0 F3600 X61.97 Y73.849
G1 F1800 X74.669 Y86.548 E81.52397
G0 F3600 X74.669 Y85.982
G1 F1800 X62.101 Y73.415 E81.96732
G0 F3600 X62.232 Y72.98
G1 F1800 X74.669 Y85.417 E82.40607
G0 F3600 X74.669 Y84.851
G1 F1800 X62.303 Y72.485 E82.84231
G0 F3600 X62.354 Y71.97
G1 F1800 X74.669 Y84.285 E83.27676
G0 F3600 X74.669 Y83.72
G1 F1800 X62.354 Y71.405 E83.7112
G0 F3600 X62.292 Y70.777
G1 F1800 X74.669 Y83.154 E84.14784
G0 F3600 X74.669 Y82.588
G1 F1800 X62.129 Y70.048 E84.59022
G1 X62.059 Y69.978
G0 F3600 X61.828 Y69.181
G1 F1800 X74.669 Y82.022 E85.04322
G0 F3600 X74.669 Y81.457
G1 F1800 X60.656 Y67.444 E85.53757
G0 F3600 X60.511 Y67.299
G1 F1800 X38.506 Y45.295 E86.31383
G0 F3600 X38.682 Y44.905
G1 F1800 X74.669 Y80.891 E87.58336
G0 F3600 X74.669 Y80.325
G1 F1800 X39.248 Y44.905 E88.83291
G0 F3600 X39.814 Y44.905
G1 F1800 X74.669 Y79.76 E90.06251
G0 F3600 X74.669 Y79.194
G1 F1800 X40.38 Y44.905 E91.27215
G0 F3600 X40.945 Y44.905
G1 F1800 X74.669 Y78.628 E92.46184
G0 F3600 X74.669 Y78.063
G1 F1800 X41.511 Y44.905 E93.63158
G0 F3600 X42.077 Y44.905
G1 F1800 X74.669 Y77.497 E94.78135
G0 F3600 X74.669 Y76.931
G1 F1800 X42.642 Y44.905 E95.91117
G0 F3600 X43.208 Y44.905
G1 F1800 X74.669 Y76.366 E97.02104
G0 F3600 X74.669 Y75.8
G1 F1800 X43.774 Y44.905 E98.11094
G0 F3600 X44.339 Y44.905
G1 F1800 X74.669 Y75.234 E99.1809
G0 F3600 X74.669 Y74.669
G1 F1800 X44.905 Y44.905 E100.23091
G0 F3600 X45.471 Y44.905
G1 F1800 X74.669 Y74.103 E101.26094
G0 F3600 X74.669 Y73.537
G1 F1800 X46.036 Y44.905 E102.27103
G0 F3600 X46.602 Y44.905
