;FLAVOR:Marlin
;TIME:8609
;Filament used: 16.2891m
;Layer height: 0.4
;MINX:50.2
;MINY:39.437
;MINZ:0.15
;MAXX:169.8
;MAXY:180.563
;MAXZ:20.95
;Generated with Cura_SteamEngine 4.9.0
M140 S60
M105
M190 S60
M104 S200
M105
M109 S200
M82 ;absolute extrusion mode
G28 ; Auto home
G1 Z15 F300 ;Move up slightly
M107 ;Off fans
G90 ;Switch to absolute positioning
M82 ;Extruder absolute mode
G92 E0 ;Set position of extruder to 0
G0 X10 Y20 F1500 ;Move to X10 Y20 at 1500mms
G1 Z0.8 ;Move Z to 0.8
G1 F300 X180 E40 ;Extrude a line of filament
G1 F1200 Z2 ;Raise Z
G92 E0 ;Set extruder position to zero
G28 ;Auto home
G92 E0
G92 E0
G1 F2100 E-0.8
;LAYER_COUNT:53
;LAYER:0
M107
G0 F3600 X137.107 Y105.4 Z0.15
;TYPE:SKIRT
G1 F2100 E0
G1 F1800 X137.445 Y104.984 E0.01337
G1 X137.841 Y104.623 E0.02674
G1 X138.287 Y104.324 E0.04013
G1 X138.772 Y104.096 E0.0535
G1 X139.286 Y103.941 E0.06689
G1 X139.817 Y103.865 E0.08027
G1 X140.353 Y103.869 E0.09364
G1 X140.883 Y103.952 E0.10703
G1 X141.394 Y104.113 E0.12039
G1 X141.876 Y104.348 E0.13377
G1 X142.429 Y104.746 E0.15076
G1 X143.117 Y105.347 E0.17355
G1 X159.029 Y119.749 E0.70892
G1 X159.575 Y120.258 E0.72754
G1 X159.939 Y120.652 E0.74092
G1 X160.24 Y121.095 E0.75428
G1 X160.472 Y121.579 E0.76767
G1 X160.628 Y122.081 E0.78078
G1 X160.825 Y122.935 E0.80264
G1 X161.492 Y125.645 E0.87226
G1 X162.212 Y128.251 E0.93971
G1 X163.022 Y130.891 E1.00859
G1 X163.889 Y133.455 E1.07611
G1 X164.323 Y134.679 E1.1085
G1 X164.464 Y135.196 E1.12187
G1 X164.527 Y135.729 E1.13526
G1 X164.51 Y136.265 E1.14864
G1 X164.46 Y136.587 E1.15676
G1 X164.305 Y137.364 E1.17653
G1 X161.554 Y150.079 E1.50104
G1 X161.398 Y150.75 E1.51823
G1 X161.238 Y151.262 E1.53161
G1 X161.004 Y151.744 E1.54498
G1 X160.755 Y152.117 E1.55616
G1 X159.931 Y153.198 E1.59007
G1 X158.269 Y155.445 E1.65979
G1 X156.723 Y157.663 E1.72723
G1 X155.237 Y159.929 E1.79483
G1 X153.791 Y162.277 E1.86361
G1 X152.428 Y164.637 E1.9316
G1 X151.147 Y167.004 E1.99873
G1 X149.894 Y169.489 E2.06816
G1 X149.043 Y171.286 E2.11776
G1 X148.852 Y171.7 E2.12913
G1 X148.592 Y172.168 E2.14248
G1 X148.264 Y172.593 E2.15588
G1 X147.878 Y172.965 E2.16925
G1 X147.44 Y173.275 E2.18263
G1 X146.961 Y173.516 E2.19601
G1 X146.452 Y173.684 E2.20938
G1 X145.791 Y173.784 E2.22606
G1 X144.728 Y173.844 E2.25262
G1 X141.013 Y173.984 E2.34535
G1 X140.304 Y174 E2.36304
G1 X139.769 Y173.972 E2.37641
G1 X139.4 Y173.906 E2.38576
G1 X138.625 Y173.723 E2.40562
G1 X137.298 Y173.391 E2.43974
G1 X134.636 Y172.806 E2.50773
G1 X131.923 Y172.288 E2.57663
G1 X129.283 Y171.864 E2.64333
G1 X126.968 Y171.552 E2.7016
G1 X113.641 Y169.916 E3.03654
G1 X112.946 Y169.82 E3.05404
G1 X112.422 Y169.707 E3.06741
G1 X111.92 Y169.518 E3.08079
G1 X111.452 Y169.256 E3.09417
G1 X111.028 Y168.928 E3.10754
G1 X110.658 Y168.54 E3.12092
G1 X110.349 Y168.101 E3.13431
G1 X110.109 Y167.622 E3.14767
G1 X109.943 Y167.112 E3.16105
G1 X109.854 Y166.583 E3.17443
G1 X109.845 Y166.047 E3.18781
G1 X109.916 Y165.515 E3.2012
G1 X110.064 Y165 E3.21456
G1 X110.288 Y164.513 E3.22793
G1 X110.582 Y164.064 E3.24132
G1 X110.786 Y163.82 E3.24926
G1 X111.475 Y163.069 E3.27468
G1 X113.29 Y161.035 E3.34268
G1 X115.063 Y158.932 E3.4113
G1 X116.746 Y156.818 E3.4787
G1 X118.378 Y154.646 E3.54647
G1 X119.971 Y152.394 E3.61528
G1 X121.465 Y150.151 E3.68251
G1 X122.913 Y147.837 E3.7506
G1 X124.305 Y145.465 E3.81921
G1 X125.603 Y143.105 E3.8864
G1 X126.858 Y140.659 E3.95497
G1 X128.037 Y138.195 E4.02311
G1 X129.136 Y135.716 E4.09076
G1 X130.173 Y133.193 E4.1588
G1 X131.142 Y130.626 E4.22725
G1 X132.026 Y128.07 E4.29471
G1 X132.839 Y125.486 E4.36228
G1 X133.598 Y122.81 E4.43167
G1 X134.266 Y120.178 E4.49941
G1 X134.856 Y117.529 E4.56711
G1 X135.373 Y114.86 E4.63492
G1 X135.817 Y112.165 E4.70306
G1 X136.184 Y109.463 E4.77108
G1 X136.404 Y107.483 E4.82077
G1 X136.437 Y107.171 E4.8286
G1 X136.532 Y106.643 E4.84198
G1 X136.79 Y105.951 E4.8604
G1 X136.834 Y105.862 E4.86288
G1 X137.107 Y105.4 E4.87627
G0 F3600 X137.452 Y105.605
G1 F1800 X137.776 Y105.217 E4.88888
G1 X138.157 Y104.885 E4.90148
G1 X138.586 Y104.617 E4.9141
G1 X139.052 Y104.42 E4.92672
G1 X139.543 Y104.299 E4.93933
G1 X140.046 Y104.257 E4.95193
G1 X140.551 Y104.295 E4.96456
G1 X141.042 Y104.411 E4.97714
G1 X141.51 Y104.604 E4.98977
G1 X141.941 Y104.868 E5.00238
G1 X142.166 Y105.047 E5.00955
G1 X142.848 Y105.643 E5.03214
G1 X158.756 Y120.041 E5.56737
G1 X159.302 Y120.55 E5.58599
G1 X159.643 Y120.923 E5.5986
G1 X159.922 Y121.345 E5.61122
G1 X160.13 Y121.806 E5.62383
G1 X160.238 Y122.171 E5.63333
G1 X160.446 Y123.071 E5.65637
G1 X161.104 Y125.743 E5.72502
G1 X161.827 Y128.361 E5.79277
G1 X162.636 Y130.999 E5.8616
G1 X163.512 Y133.589 E5.9298
G1 X163.946 Y134.813 E5.9622
G1 X164.077 Y135.301 E5.9748
G1 X164.129 Y135.804 E5.98741
G1 X164.068 Y136.509 E6.00507
G1 X163.914 Y137.279 E6.02465
G1 X161.165 Y149.989 E6.34904
G1 X161.009 Y150.66 E6.36622
G1 X160.856 Y151.141 E6.37881
G1 X160.629 Y151.593 E6.39143
G1 X160.437 Y151.875 E6.39994
G1 X159.61 Y152.96 E6.43397
G1 X157.947 Y155.208 E6.50372
G1 X156.394 Y157.437 E6.57149
G1 X154.889 Y159.731 E6.63993
G1 X153.454 Y162.063 E6.70824
G1 X152.088 Y164.426 E6.77632
G1 X150.768 Y166.867 E6.84554
G1 X149.552 Y169.279 E6.91293
G1 X148.682 Y171.114 E6.96358
G1 X148.489 Y171.532 E6.97507
G1 X148.242 Y171.973 E6.98768
G1 X147.928 Y172.369 E7.00028
G1 X147.555 Y172.711 E7.01291
G1 X147.134 Y172.99 E7.02551
G1 X146.673 Y173.199 E7.03813
G1 X146.186 Y173.333 E7.05073
G1 X145.768 Y173.385 E7.06124
G1 X144.713 Y173.445 E7.0876
G1 X141.004 Y173.584 E7.18019
G1 X140.295 Y173.6 E7.19788
G1 X139.79 Y173.572 E7.21049
G1 X139.492 Y173.516 E7.21806
G1 X138.722 Y173.335 E7.23779
G1 X137.383 Y173 E7.27222
G1 X134.718 Y172.415 E7.34028
G1 X131.996 Y171.895 E7.40941
G1 X129.321 Y171.465 E7.47699
G1 X127.058 Y171.16 E7.53396
G1 X113.696 Y169.52 E7.86977
G1 X113.001 Y169.424 E7.88727
G1 X112.507 Y169.315 E7.89989
G1 X112.037 Y169.13 E7.91249
G1 X111.601 Y168.874 E7.92511
G1 X111.212 Y168.552 E7.9377
G1 X110.878 Y168.172 E7.95032
G1 X110.607 Y167.745 E7.96294
G1 X110.408 Y167.28 E7.97556
G1 X110.284 Y166.79 E7.98816
G1 X110.239 Y166.286 E8.00079
G1 X110.274 Y165.782 E8.01339
G1 X110.388 Y165.289 E8.02601
G1 X110.578 Y164.821 E8.03861
G1 X110.839 Y164.388 E8.05122
G1 X111.081 Y164.091 E8.06078
G1 X111.74 Y163.372 E8.08511
G1 X113.611 Y161.275 E8.15521
G1 X115.348 Y159.215 E8.22243
G1 X117.062 Y157.062 E8.29108
G1 X118.725 Y154.849 E8.36013
G1 X120.287 Y152.641 E8.4276
G1 X121.804 Y150.363 E8.49587
G1 X123.254 Y148.046 E8.56405
G1 X124.651 Y145.666 E8.63289
G1 X125.966 Y143.275 E8.70096
G1 X127.211 Y140.85 E8.76896
G1 X128.406 Y138.351 E8.83806
G1 X129.501 Y135.881 E8.90546
G1 X130.541 Y133.35 E8.97372
G1 X131.523 Y130.75 E9.04305
G1 X132.41 Y128.184 E9.11077
G1 X133.22 Y125.61 E9.17808
G1 X133.978 Y122.938 E9.24737
G1 X134.656 Y120.267 E9.31611
G1 X135.245 Y117.62 E9.38375
G1 X135.775 Y114.883 E9.4533
G1 X136.209 Y112.247 E9.51994
G1 X136.587 Y109.468 E9.5899
G1 X136.838 Y107.188 E9.64712
G1 X136.927 Y106.715 E9.65912
G1 X137.148 Y106.128 E9.67477
G1 X137.192 Y106.039 E9.67724
G1 X137.452 Y105.605 E9.68986
G1 F2100 E8.88986
;MESH:cube_base.stl
G0 F3600 X139.341 Y108.394
G0 X140.426 Y108.395
G0 X156.528 Y136.484
;TYPE:WALL-INNER
G1 F2100 E9.68986
G1 F1800 X159.951 Y136.484 E9.77525
G1 X159.952 Y136.484 E9.77528
G1 X160.198 Y136.484 E9.78141
G1 X160.146 Y136.725 E9.78517
G1 X157.409 Y149.387 E10.10832
G1 X155.912 Y149.552 E10.14589
G1 X151.348 Y154.131 E10.30716
G1 X144.615 Y165.101 E10.62824
G1 X144.401 Y165.374 E10.63689
G1 X140.772 Y169.015 E10.76513
G1 X117.056 Y166.104 E11.36117
G1 X116.165 Y165.995 E11.38356
G1 X117.018 Y165.716 E11.39501
G1 X131.811 Y160.878 E11.78326
G1 X133.674 Y159.007 E11.84912
G1 X136.194 Y154.904 E11.96924
G1 X138.157 Y151.805 E12.06074
G1 X138.347 Y151.768 E12.06557
G1 X138.718 Y151.52 E12.07671
G1 X138.965 Y151.148 E12.08784
G1 X139.05 Y150.718 E12.09878
G1 X138.998 Y150.427 E12.10615
G1 X138.73 Y145.462 E12.23018
G1 X138.86 Y145.331 E12.23479
G1 X139.028 Y144.921 E12.24584
G1 X139.028 Y144.575 E12.25447
G1 X140.568 Y143.029 E12.30891
G1 X140.607 Y109.191 E13.153
G1 X140.607 Y109.189 E13.15305
G1 X140.607 Y108.741 E13.16422
G1 X140.94 Y109.042 E13.1703
G1 X156.528 Y123.149 E13.69474
G1 X156.528 Y136.484 E14.02738
G0 F3600 X156.928 Y136.084
;TYPE:WALL-OUTER
G1 F1800 X160.447 Y136.084 E14.11517
G1 X160.448 Y136.084 E14.11519
G1 X160.694 Y136.084 E14.12133
G1 X160.642 Y136.325 E14.12508
G1 X157.739 Y149.753 E14.46778
G1 X156.096 Y149.934 E14.50902
G1 X151.664 Y154.38 E14.66561
G1 X144.945 Y165.327 E14.98602
G1 X144.702 Y165.638 E14.99587
G1 X140.917 Y169.436 E15.12962
G1 X115.225 Y166.282 E15.77532
G1 X114.334 Y166.173 E15.79772
G1 X115.187 Y165.894 E15.80917
G1 X131.595 Y160.528 E16.2398
G1 X133.358 Y158.758 E16.30212
G1 X135.856 Y154.69 E16.4212
G1 X137.911 Y151.446 E16.51699
G1 X138.191 Y151.391 E16.52411
G1 X138.429 Y151.232 E16.53125
G1 X138.588 Y150.993 E16.53841
G1 X138.643 Y150.714 E16.54551
G1 X138.601 Y150.478 E16.55149
G1 X138.321 Y145.306 E16.68069
G1 X138.52 Y145.106 E16.68773
G1 X138.628 Y144.842 E16.69485
G1 X138.628 Y144.557 E16.70195
G1 X138.595 Y144.444 E16.70489
G1 X140.168 Y142.864 E16.76051
G1 X140.208 Y108.29 E17.62296
G1 X140.208 Y108.288 E17.62301
G1 X140.208 Y107.84 E17.63418
G1 X140.541 Y108.141 E17.64026
G1 X156.928 Y122.971 E18.19158
G1 X156.928 Y136.084 E18.51869
G0 F3600 X157.128 Y136.084
G1 F2100 E17.71869
G0 F3600 X157.128 Y136.384
G0 X140.839 Y169.207
G0 X141.075 Y170.08
G0 X141.076 Y170.179
G1 F2100 E18.51869
G1 F1800 X140.727 Y170.193 E18.5274
G1 X141.063 Y169.856 E18.53354
G1 X143.08 Y170.104 E18.58423
G1 X141.076 Y170.179 E18.60433
G0 F3600 X140.876 Y170.187
G1 F2100 E17.80433
G0 F3600 X140.922 Y170.137
G0 X140.839 Y169.207
G0 X140.631 Y168.604
;TYPE:SKIN
G1 F2100 E18.60433
G1 F1800 X117.954 Y165.821 E19.17425
G1 X132.021 Y161.219 E19.54345
G1 X133.982 Y159.25 E19.61277
G1 X136.524 Y155.113 E19.7339
G1 X138.397 Y152.156 E19.82121
G1 X138.499 Y152.136 E19.82381
G1 X138.999 Y151.801 E19.83882
G1 X139.333 Y151.3 E19.85384
G1 X139.447 Y150.722 E19.86853
G1 X139.386 Y150.386 E19.87705
G1 X139.13 Y145.614 E19.99626
G1 X139.192 Y145.551 E19.99847
G1 X139.418 Y144.997 E20.01339
G1 X139.418 Y144.737 E20.01988
G1 X140.958 Y143.191 E20.07431
G1 X140.996 Y109.618 E20.91179
G1 X156.138 Y123.321 E21.42122
G1 X156.138 Y136.874 E21.7593
G1 X159.715 Y136.874 E21.84853
G1 X157.088 Y149.03 E22.15876
G1 X155.733 Y149.179 E22.19277
G1 X151.04 Y153.888 E22.35861
G1 X144.295 Y164.878 E22.68027
G1 X144.112 Y165.111 E22.68766
G1 X140.631 Y168.604 E22.81067
G0 F3600 X119.212 Y165.598
G1 F1800 X119.433 Y165.82 E22.81849
G0 F3600 X119.638 Y165.459
G1 F1800 X120.078 Y165.899 E22.83401
G0 F3600 X120.065 Y165.32
G1 F1800 X120.723 Y165.978 E22.85722
G0 F3600 X121.368 Y166.057
G1 F1800 X120.491 Y165.18 E22.88816
G0 F3600 X120.917 Y165.04
G1 F1800 X122.013 Y166.136 E22.92682
G0 F3600 X122.658 Y166.216
G1 F1800 X121.343 Y164.901 E22.97321
G0 F3600 X121.77 Y164.762
G1 F1800 X123.303 Y166.295 E23.0273
G0 F3600 X123.948 Y166.374
G1 F1800 X122.196 Y164.622 E23.0891
G0 F3600 X122.622 Y164.482
G1 F1800 X124.592 Y166.452 E23.1586
G0 F3600 X125.237 Y166.532
G1 F1800 X123.048 Y164.343 E23.23582
G0 F3600 X123.474 Y164.204
G1 F1800 X125.881 Y166.611 E23.32073
G0 F3600 X126.526 Y166.69
G1 F1800 X123.901 Y164.065 E23.41334
G0 F3600 X124.327 Y163.925
G1 F1800 X127.171 Y166.769 E23.51367
G0 F3600 X127.816 Y166.848
G1 F1800 X124.753 Y163.785 E23.62172
G0 F3600 X125.179 Y163.646
G1 F1800 X128.461 Y166.928 E23.73751
G0 F3600 X129.105 Y167.006
G1 F1800 X125.606 Y163.507 E23.86094
G0 F3600 X126.032 Y163.367
G1 F1800 X129.75 Y167.085 E23.9921
G0 F3600 X130.395 Y167.164
G1 F1800 X126.458 Y163.227 E24.13099
G0 F3600 X126.884 Y163.088
G1 F1800 X131.04 Y167.244 E24.27761
G0 F3600 X131.685 Y167.323
G1 F1800 X127.311 Y162.949 E24.43191
G0 F3600 X127.737 Y162.809
G1 F1800 X132.33 Y167.402 E24.59394
G0 F3600 X132.974 Y167.481
G1 F1800 X128.163 Y162.669 E24.76368
G0 F3600 X128.589 Y162.53
G1 F1800 X133.619 Y167.56 E24.94113
G0 F3600 X134.264 Y167.639
G1 F1800 X129.015 Y162.391 E25.12628
G0 F3600 X129.442 Y162.252
G1 F1800 X134.908 Y167.718 E25.31911
G0 F3600 X135.553 Y167.797
G1 F1800 X129.867 Y162.112 E25.51968
G0 F3600 X130.294 Y161.972
G1 F1800 X136.198 Y167.877 E25.72798
G0 F3600 X136.843 Y167.956
G1 F1800 X130.72 Y161.833 E25.94398
G0 F3600 X131.147 Y161.694
G1 F1800 X137.488 Y168.035 E26.16768
G0 F3600 X138.132 Y168.113
G1 F1800 X131.572 Y161.554 E26.39908
G0 F3600 X131.999 Y161.414
G1 F1800 X138.777 Y168.193 E26.63821
G0 F3600 X139.422 Y168.272
G1 F1800 X132.321 Y161.171 E26.88872
G0 F3600 X132.603 Y160.888
G1 F1800 X140.067 Y168.351 E27.15202
G0 F3600 X140.63 Y168.348
G1 F1800 X132.885 Y160.604 E27.42522
G0 F3600 X133.168 Y160.32
G1 F1800 X140.912 Y168.065 E27.69843
G0 F3600 X141.195 Y167.782
G1 F1800 X133.45 Y160.038 E27.97164
G0 F3600 X133.732 Y159.754
G1 F1800 X141.477 Y167.498 E28.24485
G0 F3600 X141.76 Y167.215
G1 F1800 X134.015 Y159.47 E28.51808
G0 F3600 X134.256 Y159.146
G1 F1800 X142.042 Y166.932 E28.79275
G0 F3600 X142.324 Y166.648
G1 F1800 X134.471 Y158.795 E29.06978
G0 F3600 X134.686 Y158.445
G1 F1800 X142.607 Y166.365 E29.3492
G0 F3600 X142.889 Y166.082
G1 F1800 X134.901 Y158.094 E29.631
G0 F3600 X135.117 Y157.744
G1 F1800 X143.171 Y165.798 E29.91512
G0 F3600 X143.454 Y165.516
G1 F1800 X135.332 Y157.394 E30.20165
G0 F3600 X135.548 Y157.044
G1 F1800 X143.736 Y165.232 E30.4905
G0 F3600 X144.013 Y164.943
G1 F1800 X135.763 Y156.693 E30.78155
G0 F3600 X135.978 Y156.343
G1 F1800 X144.246 Y164.611 E31.07322
G0 F3600 X144.462 Y164.261
G1 F1800 X136.193 Y155.992 E31.36493
G0 F3600 X136.409 Y155.642
G1 F1800 X144.677 Y163.91 E31.65661
G0 F3600 X144.892 Y163.56
G1 F1800 X136.624 Y155.291 E31.9483
G0 F3600 X136.842 Y154.944
G1 F1800 X145.107 Y163.209 E32.23987
G0 F3600 X145.323 Y162.859
G1 F1800 X137.062 Y154.598 E32.5313
G0 F3600 X137.281 Y154.252
G1 F1800 X145.538 Y162.508 E32.82257
G0 F3600 X145.753 Y162.157
G1 F1800 X137.501 Y153.906 E33.11367
G0 F3600 X137.72 Y153.559
G1 F1800 X145.968 Y161.807 E33.40464
G0 F3600 X146.183 Y161.457
G1 F1800 X137.94 Y153.213 E33.69545
G0 F3600 X138.159 Y152.867
G1 F1800 X146.398 Y161.106 E33.9861
G0 F3600 X146.613 Y160.755
G1 F1800 X138.378 Y152.52 E34.27661
G0 F3600 X138.665 Y152.241
G1 F1800 X146.828 Y160.405 E34.5646
G0 F3600 X147.044 Y160.055
G1 F1800 X139.003 Y152.013 E34.84829
G0 F3600 X139.271 Y151.716
G1 F1800 X147.259 Y159.704 E35.13009
G0 F3600 X147.474 Y159.353
G1 F1800 X139.497 Y151.376 E35.4115
G0 F3600 X139.593 Y150.907
G1 F1800 X147.689 Y159.002 E35.69709
G0 F3600 X147.904 Y158.652
G1 F1800 X139.561 Y150.309 E35.99141
G0 F3600 X139.529 Y149.712
G1 F1800 X148.119 Y158.302 E36.29444
G0 F3600 X148.334 Y157.951
G1 F1800 X139.498 Y149.114 E36.60618
G0 F3600 X139.466 Y148.517
G1 F1800 X148.549 Y157.6 E36.9266
G0 F3600 X148.765 Y157.25
G1 F1800 X139.434 Y147.919 E37.25578
G0 F3600 X139.402 Y147.322
G1 F1800 X148.98 Y156.899 E37.59365
G0 F3600 X149.195 Y156.549
G1 F1800 X139.37 Y146.724 E37.94026
G0 F3600 X139.338 Y146.127
G1 F1800 X149.41 Y156.198 E38.29555
G0 F3600 X149.625 Y155.848
G1 F1800 X139.369 Y145.591 E38.65738
G0 F3600 X139.532 Y145.189
G1 F1800 X149.84 Y155.497 E39.02102
G0 F3600 X150.055 Y155.147
G1 F1800 X139.658 Y144.749 E39.38782
G0 F3600 X139.94 Y144.466
G1 F1800 X150.27 Y154.796 E39.75224
G0 F3600 X150.486 Y154.446
G1 F1800 X140.222 Y144.182 E40.11433
G0 F3600 X140.505 Y143.899
G1 F1800 X150.701 Y154.095 E40.47402
G0 F3600 X150.922 Y153.75
G1 F1800 X140.787 Y143.616 E40.83154
G0 F3600 X141.069 Y143.332
G1 F1800 X151.204 Y153.467 E41.18908
G0 F3600 X151.487 Y153.184
G1 F1800 X141.137 Y142.834 E41.55421
G0 F3600 X141.138 Y142.269
G1 F1800 X151.769 Y152.9 E41.92925
G0 F3600 X152.051 Y152.617
G1 F1800 X141.139 Y141.704 E42.31421
G0 F3600 X141.139 Y141.139
G1 F1800 X152.334 Y152.334 E42.70915
G0 F3600 X152.616 Y152.051
G1 F1800 X141.14 Y140.574 E43.11401
G0 F3600 X141.141 Y140.009
G1 F1800 X152.899 Y151.767 E43.52881
G0 F3600 X153.181 Y151.484
G1 F1800 X141.141 Y139.444 E43.95355
