;FLAVOR:Marlin
;TIME:5435
;Filament used: 10.1547m
;Layer height: 0.4
;MINX:42.202
;MINY:28.623
;MINZ:0.15
;MAXX:135.193
;MAXY:120.238
;MAXZ:39.75
;Generated with Cura_SteamEngine 4.9.0
M140 S60
M105
M190 S60
M104 S200
M105
M109 S200
M82 ;absolute extrusion mode
G28 ; Auto home
G1 Z15 F300 ;Move up slightly
M107 ;Off fans
G90 ;Switch to absolute positioning
M82 ;Extruder absolute mode
G92 E0 ;Set position of extruder to 0
G0 X10 Y20 F1500 ;Move to X10 Y20 at 1500mms
G1 Z0.8 ;Move Z to 0.8
G1 F300 X180 E40 ;Extrude a line of filament
G1 F1200 Z2 ;Raise Z
G92 E0 ;Set extruder position to zero
G28 ;Auto home
G92 E0
G92 E0
G1 F2100 E-0.8
;LAYER_COUNT:100
;LAYER:0
M107
G0 F3600 X45.056 Y33.839 Z0.15
;TYPE:SKIRT
G1 F2100 E0
G1 F1800 X45.387 Y33.462 E0.01251
G1 X45.796 Y33.054 E0.02693
G1 X46.089 Y32.771 E0.03709
G1 X46.515 Y32.369 E0.0517
G1 X46.804 Y32.127 E0.0611
G1 X47.778 Y31.405 E0.09134
G1 X48.304 Y31.042 E0.10729
G1 X48.625 Y30.848 E0.11664
G1 X49.441 Y30.417 E0.13966
G1 X49.625 Y30.324 E0.14481
G1 X50.293 Y29.996 E0.16337
G1 X50.616 Y29.858 E0.17213
G1 X51.236 Y29.635 E0.18857
G1 X51.694 Y29.477 E0.20065
G1 X52.341 Y29.264 E0.21765
G1 X52.863 Y29.129 E0.23109
G1 X53.21 Y29.056 E0.23994
G1 X53.831 Y28.932 E0.25574
G1 X54.54 Y28.801 E0.27372
G1 X55.047 Y28.741 E0.28646
G1 X55.467 Y28.71 E0.29696
G1 X56.033 Y28.673 E0.31111
G1 X56.547 Y28.647 E0.32395
G1 X57.807 Y28.623 E0.35539
G1 X126.273 Y28.623 E2.06328
G1 X126.975 Y28.633 E2.08079
G1 X127.664 Y28.719 E2.09811
G1 X128.265 Y28.875 E2.1136
G1 X129.133 Y29.121 E2.13611
G1 X129.772 Y29.312 E2.15274
G1 X130.244 Y29.495 E2.16537
G1 X130.681 Y29.749 E2.17798
G1 X131.023 Y30.024 E2.18893
G1 X131.64 Y30.592 E2.20985
G1 X132.258 Y31.181 E2.23114
G1 X132.737 Y31.651 E2.24788
G1 X133.069 Y32.032 E2.26049
G1 X133.371 Y32.53 E2.27502
G1 X133.754 Y33.316 E2.29683
G1 X134.242 Y34.356 E2.32549
G1 X134.515 Y34.962 E2.34206
G1 X134.685 Y35.438 E2.35467
G1 X134.812 Y36.095 E2.37137
G1 X135.064 Y37.889 E2.41656
G1 X135.158 Y38.641 E2.43546
G1 X135.186 Y39.084 E2.44653
G1 X135.193 Y39.62 E2.45991
G1 X135.193 Y110.572 E4.22981
G1 X135.183 Y111.264 E4.24707
G1 X135.144 Y111.714 E4.25834
G1 X135.017 Y112.523 E4.27877
G1 X134.867 Y113.386 E4.30062
G1 X134.75 Y114.014 E4.31655
G1 X134.695 Y114.258 E4.32279
G1 X134.529 Y114.736 E4.33542
G1 X134.263 Y115.25 E4.34985
G1 X134.216 Y115.334 E4.35225
G1 X133.632 Y116.337 E4.38121
G1 X133.248 Y116.977 E4.39982
G1 X132.954 Y117.389 E4.41245
G1 X132.536 Y117.803 E4.42713
G1 X132.03 Y118.205 E4.44325
G1 X131.354 Y118.724 E4.46451
G1 X130.784 Y119.148 E4.48223
G1 X130.356 Y119.416 E4.49482
G1 X129.89 Y119.614 E4.50745
G1 X129.638 Y119.687 E4.514
G1 X128.743 Y119.907 E4.53699
G1 X128.348 Y119.997 E4.5471
G1 X127.604 Y120.156 E4.56607
G1 X127.087 Y120.224 E4.57908
G1 X126.93 Y120.23 E4.583
G1 X126.334 Y120.238 E4.59787
G1 X49.918 Y120.238 E6.50407
G1 X49.2 Y120.227 E6.52199
G1 X48.632 Y120.173 E6.53622
G1 X47.944 Y120.064 E6.5536
G1 X47.219 Y119.932 E6.57198
G1 X46.731 Y119.803 E6.58457
G1 X46.288 Y119.608 E6.59664
G1 X45.609 Y119.246 E6.61584
G1 X44.943 Y118.864 E6.63499
G1 X44.526 Y118.578 E6.6476
G1 X44.113 Y118.178 E6.66195
G1 X43.643 Y117.613 E6.68028
G1 X43.186 Y117.029 E6.69878
G1 X42.847 Y116.491 E6.71464
G1 X42.839 Y116.475 E6.71509
G1 X42.61 Y115.874 E6.73113
G1 X42.469 Y115.325 E6.74527
G1 X42.298 Y114.568 E6.76463
G1 X42.221 Y113.925 E6.78078
G1 X42.202 Y112.892 E6.80656
G1 X42.202 Y42.048 E8.57377
G1 X42.21 Y41.464 E8.58834
G1 X42.219 Y41.266 E8.59328
G1 X42.294 Y40.276 E8.61805
G1 X42.304 Y40.166 E8.6208
G1 X42.374 Y39.533 E8.63669
G1 X42.528 Y38.806 E8.65523
G1 X42.7 Y38.205 E8.67082
G1 X42.891 Y37.573 E8.68729
G1 X43.063 Y37.127 E8.69921
G1 X43.495 Y36.217 E8.72434
G1 X43.816 Y35.593 E8.74185
G1 X44.051 Y35.208 E8.7531
G1 X44.574 Y34.475 E8.77556
G1 X45.056 Y33.839 E8.79547
G1 F2100 E7.99547
;MESH:4foot.stl
G0 F3600 X47.034 Y35.41
G0 X48.069 Y36.171
G0 X126.855 Y116.339
G0 X126.866 Y116.438
;TYPE:WALL-INNER
G1 F2100 E8.79547
G1 F1800 X49.31 Y116.438 E10.73011
G1 X47.984 Y116.219 E10.76363
G1 X46.925 Y115.631 E10.79385
G1 X46.248 Y114.788 E10.82082
G1 X46.002 Y113.763 E10.84711
G1 X46.002 Y41.41 E12.65197
G1 X46.136 Y40 E12.6873
G1 X46.526 Y38.65 E12.72235
G1 X47.168 Y37.359 E12.75832
G1 X48.054 Y36.158 E12.79555
G1 X49.155 Y35.088 E12.83384
G1 X50.458 Y34.162 E12.87372
G1 X51.92 Y33.418 E12.91464
G1 X53.509 Y32.871 E12.95656
G1 X55.18 Y32.536 E12.99907
G1 X56.931 Y32.423 E13.04284
G1 X126.851 Y32.423 E14.787
G1 X128.562 Y32.908 E14.83137
G1 X130.016 Y34.294 E14.88148
G1 X131.026 Y36.45 E14.94087
G1 X131.393 Y39.078 E15.00706
G1 X131.393 Y111.183 E16.80572
G1 X131.035 Y113.244 E16.85791
G1 X130.051 Y114.935 E16.90671
G1 X128.609 Y116.04 E16.95203
G1 X126.866 Y116.438 E16.99663
G0 F3600 X126.911 Y116.838
;TYPE:WALL-OUTER
G1 F1800 X49.275 Y116.838 E18.93326
G1 X47.851 Y116.603 E18.96927
G1 X46.663 Y115.943 E19.00317
G1 X45.88 Y114.968 E19.03436
G1 X45.602 Y113.81 E19.06407
G1 X45.602 Y41.393 E20.87052
G1 X45.741 Y39.925 E20.9073
G1 X46.152 Y38.504 E20.9442
G1 X46.826 Y37.15 E20.98193
G1 X47.753 Y35.892 E21.02091
G1 X48.897 Y34.78 E21.06071
G1 X50.249 Y33.82 E21.10207
G1 X51.763 Y33.049 E21.14445
G1 X53.404 Y32.484 E21.18775
G1 X55.129 Y32.139 E21.23163
G1 X56.92 Y32.023 E21.2764
G1 X126.907 Y32.023 E23.02223
G1 X128.767 Y32.55 E23.07046
G1 X130.346 Y34.055 E23.12487
G1 X131.414 Y36.335 E23.18768
G1 X131.793 Y39.052 E23.25611
G1 X131.793 Y111.216 E25.05625
G1 X131.417 Y113.384 E25.11113
G1 X130.358 Y115.203 E25.16364
G1 X128.782 Y116.411 E25.21317
G1 X126.911 Y116.838 E25.26104
G0 F3600 X126.711 Y116.838
G0 X126.823 Y116.048
;TYPE:SKIN
G1 F1800 X49.338 Y116.048 E27.19392
G1 X48.116 Y115.846 E27.22481
G1 X47.181 Y115.327 E27.25149
G1 X46.606 Y114.612 E27.27438
G1 X46.392 Y113.718 E27.29731
G1 X46.392 Y41.425 E29.10066
G1 X46.52 Y40.077 E29.13444
G1 X46.892 Y38.789 E29.16788
G1 X47.5 Y37.565 E29.20198
G1 X48.354 Y36.408 E29.23785
G1 X49.399 Y35.394 E29.27417
G1 X50.664 Y34.494 E29.3129
G1 X52.068 Y33.779 E29.3522
G1 X53.617 Y33.246 E29.39306
G1 X55.221 Y32.925 E29.43387
G1 X56.956 Y32.813 E29.47724
G1 X126.797 Y32.813 E31.21943
G1 X128.362 Y33.256 E31.26
G1 X129.694 Y34.526 E31.30591
G1 X130.648 Y36.564 E31.36204
G1 X131.003 Y39.104 E31.42602
G1 X131.003 Y111.15 E33.22322
G1 X130.663 Y113.107 E33.27276
G1 X129.753 Y114.671 E33.3179
G1 X128.437 Y115.68 E33.35927
G1 X126.823 Y116.048 E33.40056
G0 F3600 X48.392 Y115.708
G1 F1800 X46.633 Y113.95 E33.4626
G0 F3600 X46.571 Y113.322
G1 F1800 X49.069 Y115.82 E33.55072
G0 F3600 X49.682 Y115.867
G1 F1800 X46.571 Y112.756 E33.66047
G0 F3600 X46.571 Y112.19
G1 F1800 X50.247 Y115.867 E33.79017
G0 F3600 X50.813 Y115.867
G1 F1800 X46.571 Y111.625 E33.93982
G0 F3600 X46.571 Y111.059
G1 F1800 X51.379 Y115.867 E34.10943
G0 F3600 X51.944 Y115.867
G1 F1800 X46.571 Y110.493 E34.299
G0 F3600 X46.571 Y109.928
G1 F1800 X52.51 Y115.867 E34.50851
G0 F3600 X53.076 Y115.867
G1 F1800 X46.571 Y109.362 E34.73799
G0 F3600 X46.571 Y108.796
G1 F1800 X53.641 Y115.867 E34.98742
G0 F3600 X54.207 Y115.867
G1 F1800 X46.571 Y108.231 E35.2568
G0 F3600 X46.571 Y107.665
G1 F1800 X54.773 Y115.867 E35.54615
G0 F3600 X55.338 Y115.867
G1 F1800 X46.571 Y107.099 E35.85545
G0 F3600 X46.571 Y106.534
G1 F1800 X55.904 Y115.867 E36.1847
G0 F3600 X56.47 Y115.867
G1 F1800 X46.571 Y105.968 E36.53391
G0 F3600 X46.571 Y105.402
G1 F1800 X57.035 Y115.867 E36.90307
G0 F3600 X57.601 Y115.867
G1 F1800 X46.571 Y104.837 E37.29219
G0 F3600 X46.571 Y104.271
G1 F1800 X58.167 Y115.867 E37.70127
G0 F3600 X58.732 Y115.867
G1 F1800 X46.571 Y103.705 E38.1303
G0 F3600 X46.571 Y103.14
G1 F1800 X59.298 Y115.867 E38.57928
G0 F3600 X59.864 Y115.867
G1 F1800 X46.571 Y102.574 E39.04822
G0 F3600 X46.571 Y102.008
G1 F1800 X60.43 Y115.867 E39.53714
G0 F3600 X60.995 Y115.867
G1 F1800 X46.571 Y101.442 E40.046
G0 F3600 X46.571 Y100.877
G1 F1800 X61.561 Y115.867 E40.57481
G0 F3600 X62.127 Y115.867
G1 F1800 X46.571 Y100.311 E41.12359
G0 F3600 X46.571 Y99.745
G1 F1800 X62.692 Y115.867 E41.69232
G0 F3600 X63.258 Y115.867
G1 F1800 X46.571 Y99.18 E42.281
G0 F3600 X46.571 Y98.614
G1 F1800 X63.824 Y115.867 E42.88965
G0 F3600 X64.389 Y115.867
G1 F1800 X46.571 Y98.048 E43.51824
G0 F3600 X46.571 Y97.483
G1 F1800 X64.955 Y115.867 E44.16679
G0 F3600 X65.521 Y115.867
G1 F1800 X46.571 Y96.917 E44.8353
G0 F3600 X46.571 Y96.351
G1 F1800 X66.086 Y115.867 E45.52376
G0 F3600 X66.652 Y115.867
G1 F1800 X46.571 Y95.786 E46.23217
G0 F3600 X46.571 Y95.22
G1 F1800 X67.218 Y115.867 E46.96055
G0 F3600 X67.783 Y115.867
G1 F1800 X46.571 Y94.654 E47.70888
G0 F3600 X46.571 Y94.089
G1 F1800 X68.349 Y115.867 E48.47716
G0 F3600 X68.915 Y115.867
G1 F1800 X46.571 Y93.523 E49.2654
G0 F3600 X46.571 Y92.957
G1 F1800 X69.481 Y115.867 E50.07362
G0 F3600 X70.046 Y115.867
G1 F1800 X46.571 Y92.391 E50.90178
G0 F3600 X46.571 Y91.826
G1 F1800 X70.612 Y115.867 E51.74989
G0 F3600 X71.178 Y115.867
G1 F1800 X46.571 Y91.26 E52.61797
G0 F3600 X46.571 Y90.694
G1 F1800 X71.743 Y115.867 E53.50599
G0 F3600 X72.309 Y115.867
G1 F1800 X46.571 Y90.129 E54.41397
G0 F3600 X46.571 Y89.563
G1 F1800 X72.875 Y115.867 E55.34192
G0 F3600 X73.44 Y115.867
G1 F1800 X46.571 Y88.997 E56.28981
G0 F3600 X46.571 Y88.432
G1 F1800 X74.006 Y115.867 E57.25765
G0 F3600 X74.572 Y115.867
G1 F1800 X46.571 Y87.866 E58.24547
G0 F3600 X46.571 Y87.3
G1 F1800 X75.137 Y115.867 E59.25323
G0 F3600 X75.703 Y115.867
G1 F1800 X46.571 Y86.735 E60.28094
G0 F3600 X46.571 Y86.169
G1 F1800 X76.269 Y115.867 E61.32861
G0 F3600 X76.834 Y115.867
G1 F1800 X46.571 Y85.603 E62.39624
G0 F3600 X46.571 Y85.038
G1 F1800 X77.4 Y115.867 E63.48382
G0 F3600 X77.966 Y115.867
G1 F1800 X46.571 Y84.472 E64.59136
G0 F3600 X46.571 Y83.906
G1 F1800 X78.531 Y115.867 E65.71885
G0 F3600 X79.097 Y115.867
G1 F1800 X46.571 Y83.341 E66.86629
G0 F3600 X46.571 Y82.775
G1 F1800 X79.663 Y115.867 E68.0337
G0 F3600 X80.229 Y115.867
G1 F1800 X46.571 Y82.209 E69.22108
G0 F3600 X46.571 Y81.643
G1 F1800 X80.794 Y115.867 E70.42841
G0 F3600 X81.36 Y115.867
G1 F1800 X46.571 Y81.078 E71.65568
G0 F3600 X46.571 Y80.512
G1 F1800 X81.926 Y115.867 E72.90293
G0 F3600 X82.491 Y115.867
G1 F1800 X46.571 Y79.946 E74.17012
G0 F3600 X46.571 Y79.381
G1 F1800 X83.057 Y115.867 E75.45726
G0 F3600 X83.623 Y115.867
G1 F1800 X46.571 Y78.815 E76.76437
G0 F3600 X46.571 Y78.249
G1 F1800 X84.188 Y115.867 E78.09143
G0 F3600 X84.754 Y115.867
G1 F1800 X46.571 Y77.684 E79.43844
G0 F3600 X46.571 Y77.118
G1 F1800 X85.32 Y115.867 E80.80541
G0 F3600 X85.885 Y115.867
G1 F1800 X46.571 Y76.552 E82.19234
G0 F3600 X46.571 Y75.987
G1 F1800 X86.451 Y115.867 E83.59921
G0 F3600 X87.017 Y115.867
G1 F1800 X46.571 Y75.421 E85.02606
G0 F3600 X46.571 Y74.855
G1 F1800 X87.582 Y115.867 E86.47285
G0 F3600 X88.148 Y115.867
G1 F1800 X46.571 Y74.29 E87.93959
G0 F3600 X46.571 Y73.724
G1 F1800 X88.714 Y115.867 E89.4263
G0 F3600 X89.28 Y115.867
G1 F1800 X46.571 Y73.158 E90.93297
G0 F3600 X46.571 Y72.592
G1 F1800 X89.845 Y115.867 E92.4596
G0 F3600 X90.411 Y115.867
G1 F1800 X46.571 Y72.027 E94.00617
G0 F3600 X46.571 Y71.461
G1 F1800 X90.977 Y115.867 E95.57271
G0 F3600 X91.542 Y115.867
G1 F1800 X46.571 Y70.895 E97.1592
G0 F3600 X46.571 Y70.33
G1 F1800 X92.108 Y115.867 E98.76564
G0 F3600 X92.674 Y115.867
G1 F1800 X46.571 Y69.764 E100.39205
G0 F3600 X46.571 Y69.198
G1 F1800 X93.239 Y115.867 E102.03841
G0 F3600 X93.805 Y115.867
G1 F1800 X46.571 Y68.633 E103.70472
G0 F3600 X46.571 Y68.067
G1 F1800 X94.371 Y115.867 E105.39099
G0 F3600 X94.936 Y115.867
G1 F1800 X46.571 Y67.501 E107.09721
G0 F3600 X46.571 Y66.936
G1 F1800 X95.502 Y115.867 E108.82339
G0 F3600 X96.068 Y115.867
G1 F1800 X46.571 Y66.37 E110.56953
G0 F3600 X46.571 Y65.804
G1 F1800 X96.633 Y115.867 E112.33562
G0 F3600 X97.199 Y115.867
G1 F1800 X46.571 Y65.239 E114.12166
G0 F3600 X46.571 Y64.673
G1 F1800 X97.765 Y115.867 E115.92766
G0 F3600 X98.33 Y115.867
G1 F1800 X46.571 Y64.107 E117.75362
G0 F3600 X46.571 Y63.542
G1 F1800 X98.896 Y115.867 E119.59952
G0 F3600 X99.462 Y115.867
G1 F1800 X46.571 Y62.976 E121.4654
G0 F3600 X46.571 Y62.41
G1 F1800 X100.028 Y115.867 E123.35124
G0 F3600 X100.593 Y115.867
G1 F1800 X46.571 Y61.844 E125.25703
G0 F3600 X46.571 Y61.279
G1 F1800 X101.159 Y115.867 E127.18277
G0 F3600 X101.725 Y115.867
G1 F1800 X46.571 Y60.713 E129.12847
G0 F3600 X46.571 Y60.147
G1 F1800 X102.29 Y115.867 E131.09413
G0 F3600 X102.856 Y115.867
G1 F1800 X46.571 Y59.582 E133.07973
G0 F3600 X46.571 Y59.016
G1 F1800 X103.422 Y115.867 E135.08531
G0 F3600 X103.987 Y115.867
G1 F1800 X46.571 Y58.45 E137.11083
G0 F3600 X46.571 Y57.885
G1 F1800 X104.553 Y115.867 E139.1563
G0 F3600 X105.119 Y115.867
G1 F1800 X46.571 Y57.319 E141.22174
G0 F3600 X46.571 Y56.753
G1 F1800 X105.684 Y115.867 E143.30713
G0 F3600 X106.25 Y115.867
G1 F1800 X46.571 Y56.188 E145.41247
G0 F3600 X46.571 Y55.622
G1 F1800 X106.816 Y115.867 E147.53777
G0 F3600 X107.381 Y115.867
G1 F1800 X46.571 Y55.056 E149.68302
G0 F3600 X46.571 Y54.491
G1 F1800 X107.947 Y115.867 E151.84823
G0 F3600 X108.513 Y115.867
G1 F1800 X46.571 Y53.925 E154.0334
G0 F3600 X46.571 Y53.359
G1 F1800 X109.078 Y115.867 E156.23852
G0 F3600 X109.644 Y115.867
G1 F1800 X46.571 Y52.794 E158.46359
G0 F3600 X46.571 Y52.228
G1 F1800 X110.21 Y115.867 E160.70863
G0 F3600 X110.776 Y115.867
G1 F1800 X46.571 Y51.662 E162.97363
G0 F3600 X46.571 Y51.096
G1 F1800 X111.341 Y115.867 E165.25859
G0 F3600 X111.907 Y115.867
G1 F1800 X46.571 Y50.531 E167.56349
G0 F3600 X46.571 Y49.965
G1 F1800 X112.473 Y115.867 E169.88836
G0 F3600 X113.038 Y115.867
G1 F1800 X46.571 Y49.399 E172.23318
G0 F3600 X46.571 Y48.834
G1 F1800 X113.604 Y115.867 E174.59795
G0 F3600 X114.17 Y115.867
G1 F1800 X46.571 Y48.268 E176.98269
G0 F3600 X46.571 Y47.702
G1 F1800 X114.735 Y115.867 E179.38738
G0 F3600 X115.301 Y115.867
G1 F1800 X46.571 Y47.137 E181.81201
G0 F3600 X46.571 Y46.571
G1 F1800 X115.867 Y115.867 E184.25662
G0 F3600 X116.432 Y115.867
G1 F1800 X46.571 Y46.005 E186.72117
G0 F3600 X46.571 Y45.44
G1 F1800 X116.998 Y115.867 E189.20567
G0 F3600 X117.564 Y115.867
G1 F1800 X46.571 Y44.874 E191.71014
G0 F3600 X46.571 Y44.308
G1 F1800 X118.129 Y115.867 E194.23456
G0 F3600 X118.695 Y115.867
G1 F1800 X46.571 Y43.743 E196.77893
G0 F3600 X46.571 Y43.177
G1 F1800 X119.261 Y115.867 E199.34327
G0 F3600 X119.827 Y115.867
G1 F1800 X46.571 Y42.611 E201.92757
G0 F3600 X46.571 Y42.045
G1 F1800 X120.392 Y115.867 E204.53182
G0 F3600 X120.958 Y115.867
G1 F1800 X46.571 Y41.48 E207.15603
G0 F3600 X46.615 Y40.958
G1 F1800 X121.524 Y115.867 E209.79864
G0 F3600 X122.089 Y115.867
G1 F1800 X46.664 Y40.441 E212.45948
G0 F3600 X46.741 Y39.952
G1 F1800 X122.655 Y115.867 E215.13757
G0 F3600 X123.221 Y115.867
G1 F1800 X46.867 Y39.513 E217.83116
G0 F3600 X46.995 Y39.075
G1 F1800 X123.786 Y115.867 E220.54019
G0 F3600 X124.352 Y115.867
G1 F1800 X47.152 Y38.667 E223.26363
G0 F3600 X47.34 Y38.289
G1 F1800 X124.918 Y115.867 E226.0004
G0 F3600 X125.483 Y115.867
G1 F1800 X47.528 Y37.911 E228.75049
G0 F3600 X47.733 Y37.55
G1 F1800 X126.049 Y115.867 E231.51332
G0 F3600 X126.615 Y115.867
G1 F1800 X47.973 Y37.225 E234.28763
G0 F3600 X48.214 Y36.9
G1 F1800 X127.11 Y115.797 E237.07092
G0 F3600 X127.571 Y115.692
G1 F1800 X48.453 Y36.574 E239.86202
G0 F3600 X48.735 Y36.29
G1 F1800 X128.032 Y115.587 E242.65943
G0 F3600 X128.451 Y115.44
G1 F1800 X49.022 Y36.011 E245.46151
G0 F3600 X49.309 Y35.732
G1 F1800 X128.771 Y115.195 E248.26476
G0 F3600 X129.091 Y114.949
G1 F1800 X49.609 Y35.467 E251.0687
G0 F3600 X49.939 Y35.231
G1 F1800 X129.411 Y114.704 E253.87231
G0 F3600 X129.691 Y114.418
G1 F1800 X50.269 Y34.996 E256.67413
G0 F3600 X50.599 Y34.76
G1 F1800 X129.899 Y114.06 E259.47166
G0 F3600 X130.107 Y113.702
G1 F1800 X50.953 Y34.548 E262.26403
G0 F3600 X51.328 Y34.357
G1 F1800 X130.315 Y113.344 E265.05051
G0 F3600 X130.503 Y112.967
G1 F1800 X51.702 Y34.166 E267.83043
G0 F3600 X52.077 Y33.975
G1 F1800 X130.587 Y112.485 E270.60008
G0 F3600 X130.671 Y112.004
G1 F1800 X52.491 Y33.823 E273.35811
G0 F3600 X52.912 Y33.678
G1 F1800 X130.755 Y111.522 E276.10425
G0 F3600 X130.822 Y111.023
G1 F1800 X53.333 Y33.534 E278.83788
G0 F3600 X53.764 Y33.4
