;FLAVOR:Marlin
;TIME:5390
;Filament used: 10.1552m
;Layer height: 0.4
;MINX:29.796
;MINY:28.073
;MINZ:0.15
;MAXX:122.787
;MAXY:119.689
;MAXZ:39.75
;Generated with Cura_SteamEngine 4.9.0
M140 S60
M105
M190 S60
M104 S200
M105
M109 S200
M82 ;absolute extrusion mode
G28 ; Auto home
G1 Z15 F300 ;Move up slightly
M107 ;Off fans
G90 ;Switch to absolute positioning
M82 ;Extruder absolute mode
G92 E0 ;Set position of extruder to 0
G0 X10 Y20 F1500 ;Move to X10 Y20 at 1500mms
G1 Z0.8 ;Move Z to 0.8
G1 F300 X180 E40 ;Extrude a line of filament
G1 F1200 Z2 ;Raise Z
G92 E0 ;Set extruder position to zero
G28 ;Auto home
G92 E0
G92 E0
G1 F2100 E-0.8
;LAYER_COUNT:100
;LAYER:0
M107
G0 F3600 X31.67 Y30.178 Z0.15
;TYPE:SKIRT
G1 F2100 E0
G1 F1800 X32.022 Y29.815 E0.01261
G1 X32.488 Y29.475 E0.027
G1 X32.756 Y29.315 E0.03479
G1 X33.251 Y29.038 E0.04894
G1 X33.855 Y28.713 E0.06605
G1 X34.317 Y28.509 E0.07865
G1 X34.801 Y28.382 E0.09113
G1 X35.698 Y28.221 E0.11386
G1 X36.385 Y28.118 E0.13119
G1 X36.901 Y28.08 E0.1441
G1 X37.403 Y28.073 E0.15662
G1 X113.867 Y28.073 E2.06402
G1 X114.568 Y28.083 E2.08151
G1 X115.103 Y28.136 E2.09492
G1 X115.257 Y28.166 E2.09884
G1 X115.908 Y28.306 E2.11545
G1 X116.528 Y28.446 E2.1313
G1 X117.212 Y28.614 E2.14887
G1 X117.692 Y28.773 E2.16148
G1 X118.141 Y29.006 E2.1741
G1 X118.352 Y29.149 E2.18046
G1 X119.064 Y29.677 E2.20257
G1 X119.55 Y30.05 E2.21786
G1 X120.084 Y30.473 E2.23485
G1 X120.454 Y30.817 E2.24745
G1 X120.797 Y31.263 E2.26149
G1 X121.129 Y31.809 E2.27743
G1 X121.633 Y32.674 E2.3024
G1 X121.977 Y33.283 E2.31985
G1 X122.19 Y33.742 E2.33247
G1 X122.383 Y34.489 E2.35172
G1 X122.404 Y34.595 E2.35441
G1 X122.631 Y35.904 E2.38755
G1 X122.736 Y36.564 E2.40422
G1 X122.776 Y37.021 E2.41567
G1 X122.787 Y37.789 E2.43483
G1 X122.787 Y108.611 E4.20149
G1 X122.777 Y109.31 E4.21893
G1 X122.747 Y109.721 E4.22921
G1 X122.664 Y110.374 E4.24563
G1 X122.465 Y111.802 E4.28159
G1 X122.355 Y112.519 E4.29969
G1 X122.239 Y113.011 E4.3123
G1 X122.017 Y113.563 E4.32714
G1 X121.921 Y113.774 E4.33292
G1 X121.285 Y115.129 E4.37026
G1 X120.981 Y115.757 E4.38766
G1 X120.726 Y116.194 E4.40029
G1 X120.343 Y116.646 E4.41506
G1 X119.748 Y117.23 E4.43586
G1 X119.146 Y117.804 E4.45661
G1 X118.642 Y118.272 E4.47377
G1 X118.246 Y118.586 E4.48637
G1 X117.805 Y118.833 E4.49898
G1 X117.387 Y118.991 E4.51013
G1 X116.589 Y119.231 E4.53092
G1 X116.01 Y119.395 E4.54593
G1 X115.358 Y119.57 E4.56277
G1 X114.634 Y119.677 E4.58102
G1 X114.007 Y119.689 E4.59667
G1 X45.16 Y119.689 E6.31406
G1 X44.581 Y119.679 E6.32851
G1 X43.354 Y119.621 E6.35915
G1 X43.098 Y119.603 E6.36555
G1 X42.426 Y119.548 E6.38237
G1 X41.854 Y119.463 E6.3968
G1 X40.941 Y119.283 E6.42001
G1 X40.282 Y119.142 E6.43682
G1 X39.771 Y118.997 E6.45007
G1 X39.414 Y118.878 E6.45946
G1 X38.832 Y118.677 E6.47482
G1 X38.196 Y118.447 E6.49169
G1 X37.878 Y118.313 E6.5003
G1 X37.243 Y118.002 E6.51793
G1 X36.909 Y117.831 E6.52729
G1 X36.282 Y117.501 E6.54497
G1 X35.963 Y117.309 E6.55426
G1 X35.176 Y116.768 E6.57808
G1 X34.566 Y116.326 E6.59687
G1 X34.257 Y116.071 E6.60686
G1 X33.474 Y115.338 E6.63362
G1 X33.391 Y115.257 E6.63651
G1 X32.928 Y114.791 E6.6529
G1 X32.578 Y114.383 E6.66631
G1 X32.086 Y113.725 E6.6868
G1 X31.669 Y113.143 E6.70466
G1 X31.427 Y112.748 E6.71622
G1 X31.025 Y111.97 E6.73806
G1 X30.713 Y111.324 E6.75596
G1 X30.539 Y110.882 E6.76781
G1 X30.248 Y109.942 E6.79236
G1 X30.061 Y109.262 E6.80995
G1 X29.938 Y108.546 E6.82807
G1 X29.878 Y107.945 E6.84314
G1 X29.826 Y107.299 E6.8593
G1 X29.817 Y107.106 E6.86412
G1 X29.796 Y105.988 E6.89202
G1 X29.796 Y35.144 E8.65923
G1 X29.805 Y34.476 E8.67589
G1 X29.88 Y33.83 E8.69211
G1 X30.076 Y32.947 E8.71468
G1 X30.201 Y32.46 E8.72722
G1 X30.365 Y31.982 E8.73983
G1 X30.744 Y31.333 E8.75857
G1 X31.19 Y30.757 E8.77675
G1 X31.67 Y30.178 E8.79551
G1 F2100 E7.99551
;MESH:4foot.stl
G0 F3600 X32.858 Y32.729
G0 X33.859 Y33.532
G0 X114.432 Y115.79
G0 X114.445 Y115.889
;TYPE:WALL-INNER
G1 F2100 E8.79551
G1 F1800 X44.524 Y115.889 E10.53969
G1 X42.774 Y115.775 E10.58344
G1 X41.102 Y115.441 E10.62597
G1 X39.514 Y114.894 E10.66787
G1 X38.052 Y114.15 E10.70879
G1 X36.749 Y113.223 E10.74868
G1 X35.648 Y112.153 E10.78698
G1 X34.762 Y110.953 E10.82419
G1 X34.12 Y109.662 E10.86015
G1 X33.73 Y108.312 E10.8952
G1 X33.596 Y106.902 E10.93054
G1 X33.596 Y34.549 E12.73539
G1 X33.842 Y33.524 E12.76168
G1 X34.519 Y32.68 E12.78867
G1 X35.578 Y32.092 E12.81889
G1 X36.904 Y31.873 E12.85241
G1 X114.46 Y31.873 E14.78706
G1 X116.203 Y32.271 E14.83166
G1 X117.645 Y33.377 E14.87699
G1 X118.629 Y35.068 E14.92579
G1 X118.987 Y37.129 E14.97797
G1 X118.987 Y109.233 E16.77662
G1 X118.62 Y111.863 E16.84286
G1 X117.61 Y114.018 E16.90222
G1 X116.156 Y115.404 E16.95233
G1 X114.445 Y115.889 E16.9967
G0 F3600 X114.501 Y116.289
;TYPE:WALL-OUTER
G1 F1800 X44.513 Y116.289 E18.74255
G1 X42.723 Y116.172 E18.7873
G1 X40.997 Y115.828 E18.8312
G1 X39.357 Y115.263 E18.87447
G1 X37.843 Y114.492 E18.91685
G1 X36.491 Y113.531 E18.95823
G1 X35.347 Y112.419 E18.99803
G1 X34.42 Y111.162 E19.03699
G1 X33.746 Y109.808 E19.07472
G1 X33.335 Y108.387 E19.11162
G1 X33.196 Y106.919 E19.1484
G1 X33.196 Y34.502 E20.95485
G1 X33.474 Y33.344 E20.98456
G1 X34.257 Y32.368 E21.01577
G1 X35.445 Y31.708 E21.04967
G1 X36.869 Y31.473 E21.08567
G1 X114.505 Y31.473 E23.02231
G1 X116.376 Y31.9 E23.07018
G1 X117.952 Y33.109 E23.11973
G1 X119.011 Y34.928 E23.17224
G1 X119.387 Y37.096 E23.22713
G1 X119.387 Y109.259 E25.02724
G1 X119.008 Y111.978 E25.09572
G1 X117.94 Y114.257 E25.1585
G1 X116.361 Y115.762 E25.21292
G1 X114.501 Y116.289 E25.26114
G0 F3600 X114.301 Y116.289
G0 X114.391 Y115.499
;TYPE:SKIN
G1 F1800 X44.549 Y115.499 E27.00336
G1 X42.815 Y115.386 E27.0467
G1 X41.21 Y115.066 E27.08753
G1 X39.662 Y114.533 E27.12837
G1 X38.258 Y113.818 E27.16767
G1 X36.993 Y112.917 E27.20641
G1 X35.948 Y111.903 E27.24274
G1 X35.094 Y110.747 E27.27859
G1 X34.486 Y109.523 E27.31268
G1 X34.114 Y108.235 E27.34612
G1 X33.986 Y106.887 E27.3799
G1 X33.986 Y34.594 E29.18326
G1 X34.201 Y33.7 E29.20619
G1 X34.775 Y32.984 E29.22909
G1 X35.71 Y32.465 E29.25576
G1 X36.932 Y32.263 E29.28666
G1 X114.417 Y32.263 E31.21953
G1 X116.031 Y32.631 E31.26082
G1 X117.347 Y33.641 E31.3022
G1 X118.257 Y35.205 E31.34734
G1 X118.597 Y37.162 E31.39689
G1 X118.597 Y109.207 E33.19406
G1 X118.242 Y111.749 E33.25809
G1 X117.288 Y113.786 E33.3142
G1 X115.956 Y115.056 E33.36011
G1 X114.391 Y115.499 E33.40068
G0 F3600 X35.082 Y110.318
G1 F1800 X38.503 Y113.739 E33.52136
G1 X38.573 Y113.809
G0 F3600 X39.657 Y114.327
G1 F1800 X34.6 Y109.27 E33.69976
G1 X34.53 Y109.2
G0 F3600 X34.37 Y108.475
G1 F1800 X40.539 Y114.643 E33.91737
G1 X40.609 Y114.713
G0 F3600 X41.375 Y114.914
G1 F1800 X34.252 Y107.791 E34.16866
G0 F3600 X34.192 Y107.166
G1 F1800 X42.082 Y115.055 E34.44698
G0 F3600 X42.789 Y115.196
G1 F1800 X34.165 Y106.573 E34.7512
G0 F3600 X34.165 Y106.008
G1 F1800 X43.4 Y115.242 E35.07697
G0 F3600 X44.005 Y115.281
G1 F1800 X34.165 Y105.442 E35.42408
G0 F3600 X34.165 Y104.876
G1 F1800 X44.607 Y115.318 E35.79245
G0 F3600 X45.173 Y115.318
G1 F1800 X34.165 Y104.31 E36.18079
G0 F3600 X34.165 Y103.745
G1 F1800 X45.739 Y115.318 E36.58908
G0 F3600 X46.304 Y115.318
G1 F1800 X34.165 Y103.179 E37.01731
G0 F3600 X34.165 Y102.613
G1 F1800 X46.87 Y115.318 E37.46552
G0 F3600 X47.436 Y115.318
G1 F1800 X34.165 Y102.048 E37.93367
G0 F3600 X34.165 Y101.482
G1 F1800 X48.001 Y115.318 E38.42177
G0 F3600 X48.567 Y115.318
G1 F1800 X34.165 Y100.916 E38.92984
G0 F3600 X34.165 Y100.351
G1 F1800 X49.133 Y115.318 E39.45786
G0 F3600 X49.699 Y115.318
G1 F1800 X34.165 Y99.785 E40.00585
G0 F3600 X34.165 Y99.219
G1 F1800 X50.264 Y115.318 E40.57378
G0 F3600 X50.83 Y115.318
G1 F1800 X34.165 Y98.654 E41.16167
G0 F3600 X34.165 Y98.088
G1 F1800 X51.396 Y115.318 E41.76952
G0 F3600 X51.961 Y115.318
G1 F1800 X34.165 Y97.522 E42.39732
G0 F3600 X34.165 Y96.957
G1 F1800 X52.527 Y115.318 E43.04507
G0 F3600 X53.093 Y115.318
G1 F1800 X34.165 Y96.391 E43.71279
G0 F3600 X34.165 Y95.825
G1 F1800 X53.658 Y115.318 E44.40046
G0 F3600 X54.224 Y115.318
G1 F1800 X34.165 Y95.26 E45.10808
G0 F3600 X34.165 Y94.694
G1 F1800 X54.79 Y115.318 E45.83566
G0 F3600 X55.355 Y115.318
G1 F1800 X34.165 Y94.128 E46.5832
G0 F3600 X34.165 Y93.562
G1 F1800 X55.921 Y115.318 E47.3507
G0 F3600 X56.487 Y115.318
G1 F1800 X34.165 Y92.997 E48.13815
G0 F3600 X34.165 Y92.431
G1 F1800 X57.052 Y115.318 E48.94555
G0 F3600 X57.618 Y115.318
G1 F1800 X34.165 Y91.865 E49.77292
G0 F3600 X34.165 Y91.3
G1 F1800 X58.184 Y115.318 E50.62024
G0 F3600 X58.749 Y115.318
G1 F1800 X34.165 Y90.734 E51.4875
G0 F3600 X34.165 Y90.168
G1 F1800 X59.315 Y115.318 E52.37474
G0 F3600 X59.881 Y115.318
G1 F1800 X34.165 Y89.603 E53.28192
G0 F3600 X34.165 Y89.037
G1 F1800 X60.447 Y115.318 E54.20907
G0 F3600 X61.012 Y115.318
G1 F1800 X34.165 Y88.471 E55.15617
G0 F3600 X34.165 Y87.906
G1 F1800 X61.578 Y115.318 E56.12322
G0 F3600 X62.144 Y115.318
G1 F1800 X34.165 Y87.34 E57.11024
G0 F3600 X34.165 Y86.774
G1 F1800 X62.709 Y115.318 E58.11721
G0 F3600 X63.275 Y115.318
G1 F1800 X34.165 Y86.209 E59.14412
G0 F3600 X34.165 Y85.643
G1 F1800 X63.841 Y115.318 E60.19101
G0 F3600 X64.406 Y115.318
G1 F1800 X34.165 Y85.077 E61.25784
G0 F3600 X34.165 Y84.511
G1 F1800 X64.972 Y115.318 E62.34464
G0 F3600 X65.538 Y115.318
G1 F1800 X34.165 Y83.946 E63.45139
G0 F3600 X34.165 Y83.38
G1 F1800 X66.103 Y115.318 E64.57809
G0 F3600 X66.669 Y115.318
G1 F1800 X34.165 Y82.814 E65.72475
G0 F3600 X34.165 Y82.249
G1 F1800 X67.235 Y115.318 E66.89137
G0 F3600 X67.8 Y115.318
G1 F1800 X34.165 Y81.683 E68.07794
G0 F3600 X34.165 Y81.117
G1 F1800 X68.366 Y115.318 E69.28447
G0 F3600 X68.932 Y115.318
G1 F1800 X34.165 Y80.552 E70.51095
G0 F3600 X34.165 Y79.986
G1 F1800 X69.497 Y115.318 E71.75738
G0 F3600 X70.063 Y115.318
G1 F1800 X34.165 Y79.42 E73.02378
G0 F3600 X34.165 Y78.855
G1 F1800 X70.629 Y115.318 E74.31013
G0 F3600 X71.195 Y115.318
G1 F1800 X34.165 Y78.289 E75.61644
G0 F3600 X34.165 Y77.723
G1 F1800 X71.76 Y115.318 E76.94271
G0 F3600 X72.326 Y115.318
G1 F1800 X34.165 Y77.158 E78.28892
G0 F3600 X34.165 Y76.592
G1 F1800 X72.892 Y115.318 E79.65511
G0 F3600 X73.457 Y115.318
G1 F1800 X34.165 Y76.026 E81.04124
G0 F3600 X34.165 Y75.461
G1 F1800 X74.023 Y115.318 E82.44732
G0 F3600 X74.589 Y115.318
G1 F1800 X34.165 Y74.895 E83.87337
G0 F3600 X34.165 Y74.329
G1 F1800 X75.154 Y115.318 E85.31936
G0 F3600 X75.72 Y115.318
G1 F1800 X34.165 Y73.763 E86.78533
G0 F3600 X34.165 Y73.198
G1 F1800 X76.286 Y115.318 E88.27124
G0 F3600 X76.851 Y115.318
G1 F1800 X34.165 Y72.632 E89.77711
G0 F3600 X34.165 Y72.066
G1 F1800 X77.417 Y115.318 E91.30294
G0 F3600 X77.983 Y115.318
G1 F1800 X34.165 Y71.501 E92.84872
G0 F3600 X34.165 Y70.935
G1 F1800 X78.548 Y115.318 E94.41445
G0 F3600 X79.114 Y115.318
G1 F1800 X34.165 Y70.369 E96.00015
G0 F3600 X34.165 Y69.804
G1 F1800 X79.68 Y115.318 E97.60579
G0 F3600 X80.246 Y115.318
G1 F1800 X34.165 Y69.238 E99.23141
G0 F3600 X34.165 Y68.672
G1 F1800 X80.811 Y115.318 E100.87697
G0 F3600 X81.377 Y115.318
G1 F1800 X34.165 Y68.107 E102.54248
G0 F3600 X34.165 Y67.541
G1 F1800 X81.943 Y115.318 E104.22797
G0 F3600 X82.508 Y115.318
G1 F1800 X34.165 Y66.975 E105.9334
G0 F3600 X34.165 Y66.41
G1 F1800 X83.074 Y115.318 E107.65877
G0 F3600 X83.64 Y115.318
G1 F1800 X34.165 Y65.844 E109.40412
G0 F3600 X34.165 Y65.278
G1 F1800 X84.205 Y115.318 E111.16942
G0 F3600 X84.771 Y115.318
G1 F1800 X34.165 Y64.712 E112.95468
G0 F3600 X34.165 Y64.147
G1 F1800 X85.337 Y115.318 E114.75989
G0 F3600 X85.902 Y115.318
G1 F1800 X34.165 Y63.581 E116.58506
G0 F3600 X34.165 Y63.015
G1 F1800 X86.468 Y115.318 E118.43019
G0 F3600 X87.034 Y115.318
G1 F1800 X34.165 Y62.45 E120.29526
G0 F3600 X34.165 Y61.884
G1 F1800 X87.599 Y115.318 E122.18029
G0 F3600 X88.165 Y115.318
G1 F1800 X34.165 Y61.318 E124.08529
G0 F3600 X34.165 Y60.753
G1 F1800 X88.731 Y115.318 E126.01023
G0 F3600 X89.296 Y115.318
G1 F1800 X34.165 Y60.187 E127.95513
G0 F3600 X34.165 Y59.621
G1 F1800 X89.862 Y115.318 E129.91999
G0 F3600 X90.428 Y115.318
G1 F1800 X34.165 Y59.056 E131.9048
G0 F3600 X34.165 Y58.49
G1 F1800 X90.994 Y115.318 E133.90958
G0 F3600 X91.559 Y115.318
G1 F1800 X34.165 Y57.924 E135.93431
G0 F3600 X34.165 Y57.359
G1 F1800 X92.125 Y115.318 E137.97899
G0 F3600 X92.691 Y115.318
G1 F1800 X34.165 Y56.793 E140.04363
G0 F3600 X34.165 Y56.227
G1 F1800 X93.256 Y115.318 E142.12823
G0 F3600 X93.822 Y115.318
G1 F1800 X34.165 Y55.662 E144.23277
G0 F3600 X34.165 Y55.096
G1 F1800 X94.388 Y115.318 E146.35728
G0 F3600 X94.953 Y115.318
G1 F1800 X34.165 Y54.53 E148.50174
G0 F3600 X34.165 Y53.964
G1 F1800 X95.519 Y115.318 E150.66617
G0 F3600 X96.085 Y115.318
G1 F1800 X34.165 Y53.399 E152.85055
G0 F3600 X34.165 Y52.833
G1 F1800 X96.65 Y115.318 E155.05488
G0 F3600 X97.216 Y115.318
G1 F1800 X34.165 Y52.267 E157.27917
G0 F3600 X34.165 Y51.702
G1 F1800 X97.782 Y115.318 E159.52341
G0 F3600 X98.347 Y115.318
G1 F1800 X34.165 Y51.136 E161.78761
G0 F3600 X34.165 Y50.57
G1 F1800 X98.913 Y115.318 E164.07177
G0 F3600 X99.479 Y115.318
G1 F1800 X34.165 Y50.005 E166.37588
G0 F3600 X34.165 Y49.439
G1 F1800 X100.045 Y115.318 E168.69996
G0 F3600 X100.61 Y115.318
G1 F1800 X34.165 Y48.873 E171.04398
G0 F3600 X34.165 Y48.308
G1 F1800 X101.176 Y115.318 E173.40796
G0 F3600 X101.742 Y115.318
G1 F1800 X34.165 Y47.742 E175.7919
G0 F3600 X34.165 Y47.176
G1 F1800 X102.307 Y115.318 E178.1958
G0 F3600 X102.873 Y115.318
G1 F1800 X34.165 Y46.611 E180.61964
G0 F3600 X34.165 Y46.045
G1 F1800 X103.439 Y115.318 E183.06345
G0 F3600 X104.004 Y115.318
G1 F1800 X34.165 Y45.479 E185.52721
G0 F3600 X34.165 Y44.914
G1 F1800 X104.57 Y115.318 E188.01092
G0 F3600 X105.136 Y115.318
G1 F1800 X34.165 Y44.348 E190.51459
G0 F3600 X34.165 Y43.782
G1 F1800 X105.701 Y115.318 E193.03822
G0 F3600 X106.267 Y115.318
G1 F1800 X34.165 Y43.216 E195.58181
G0 F3600 X34.165 Y42.651
G1 F1800 X106.833 Y115.318 E198.14535
G0 F3600 X107.398 Y115.318
G1 F1800 X34.165 Y42.085 E200.72885
G0 F3600 X34.165 Y41.519
G1 F1800 X107.964 Y115.318 E203.3323
G0 F3600 X108.53 Y115.318
G1 F1800 X34.165 Y40.954 E205.95571
G0 F3600 X34.165 Y40.388
G1 F1800 X109.095 Y115.318 E208.59907
G0 F3600 X109.661 Y115.318
G1 F1800 X34.165 Y39.822 E211.2624
G0 F3600 X34.165 Y39.257
G1 F1800 X110.227 Y115.318 E213.94567
G0 F3600 X110.793 Y115.318
G1 F1800 X34.165 Y38.691 E216.64891
G0 F3600 X34.165 Y38.125
G1 F1800 X111.358 Y115.318 E219.3721
G0 F3600 X111.924 Y115.318
G1 F1800 X34.165 Y37.56 E222.11525
G0 F3600 X34.165 Y36.994
G1 F1800 X112.49 Y115.318 E224.87835
G0 F3600 X113.055 Y115.318
G1 F1800 X34.165 Y36.428 E227.66141
G0 F3600 X34.165 Y35.863
G1 F1800 X113.621 Y115.318 E230.46442
G0 F3600 X114.187 Y115.318
G1 F1800 X34.165 Y35.297 E233.28739
G0 F3600 X34.165 Y34.731
G1 F1800 X114.667 Y115.233 E236.12732
G0 F3600 X115.108 Y115.108
G1 F1800 X34.251 Y34.251 E238.97977
G0 F3600 X34.361 Y33.795
G1 F1800 X115.549 Y114.984 E241.84391
G0 F3600 X115.946 Y114.815
G1 F1800 X34.608 Y33.477 E244.71333
G0 F3600 X34.86 Y33.163
G1 F1800 X116.236 Y114.539 E247.58409
G0 F3600 X116.525 Y114.262
G1 F1800 X35.21 Y32.947 E250.45269
G0 F3600 X35.574 Y32.746
G1 F1800 X116.815 Y113.987 E253.31869
G0 F3600 X117.104 Y113.71
G1 F1800 X35.993 Y32.599 E256.1801
G0 F3600 X36.479 Y32.519
G1 F1800 X117.299 Y113.339 E259.03124
G0 F3600 X117.479 Y112.953
G1 F1800 X36.968 Y32.442 E261.87149
G0 F3600 X37.533 Y32.442
G1 F1800 X117.659 Y112.568 E264.69815
G0 F3600 X117.84 Y112.183
G1 F1800 X38.099 Y32.442 E267.51123
G0 F3600 X38.665 Y32.442
G1 F1800 X118.02 Y111.797 E270.31069
G0 F3600 X118.117 Y111.329
G1 F1800 X39.23 Y32.442 E273.09364
G0 F3600 X39.796 Y32.442
G1 F1800 X118.187 Y110.833 E275.85909
G0 F3600 X118.257 Y110.337
G1 F1800 X40.362 Y32.442 E278.60705
G0 F3600 X40.928 Y32.442
G1 F1800 X118.326 Y109.841 E281.33749
G0 F3600 X118.395 Y109.344
G1 F1800 X41.493 Y32.442 E284.05042
G0 F3600 X42.059 Y32.442
G1 F1800 X118.416 Y108.799 E286.74412
G0 F3600 X118.416 Y108.234
G1 F1800 X42.625 Y32.442 E289.41787
G0 F3600 X43.19 Y32.442
G1 F1800 X118.416 Y107.668 E292.07167
G0 F3600 X118.416 Y107.102
G1 F1800 X43.756 Y32.442 E294.7055
G0 F3600 X44.322 Y32.442
G1 F1800 X118.416 Y106.536 E297.31937
